(.../pcb-gcode-3.6.2.4/pcb-gcode.ulp)
(Copyright 2005 - 2012 by John Johnson)
(See readme.txt for licensing terms.)
(This file generated from the board:)
(.../honigtopf/Honigtopf_Steuerung.brd)
(Current profile is .../pcb-gcode-3.6.2.4/profiles/emc.pp  )
(This file generated 05.05.2017 12:40)
(Settings from pcb-machine.h)
(spindle on time = 3.0000)
(spindle speed = 20000.0000)
(tool change at 0.0000 0.0000 20.0000 )
(feed rate xy = F0.00  )
(feed rate z  = F508.00 )
(Z Axis Settings)
(  High     Up        Down     Drill)
(12.7000 	2.5400 	-0.1778 	-0.8128 )
(Settings from pcb-defaults.h)
(isolate min = 0.0254)
(isolate max = 0.5080)
(isolate step = 0.1270)
(Generated bottom outlines, bottom drill, bottom stencil)
(Unit of measure: mm)
( Tool|       Size       |  Min Sub |  Max Sub |   Count )
( T01 | 0.600mm 0.0236in | 0.0000in | 0.0000in |       0 )
( T02 | 0.914mm 0.0360in | 0.0000in | 0.0000in |       0 )
( T03 | 1.000mm 0.0394in | 0.0000in | 0.0000in |       0 )
( T04 | 1.016mm 0.0400in | 0.0000in | 0.0000in |       0 )
( T05 | 1.321mm 0.0520in | 0.0000in | 0.0000in |       0 )
( T06 | 1.651mm 0.0650in | 0.0000in | 0.0000in |       0 )
( T07 | 2.500mm 0.0984in | 0.0000in | 0.0000in |       0 )
( T08 | 3.200mm 0.1260in | 0.0000in | 0.0000in |       0 )
(Metric Mode)
G21
(Absolute Coordinates)
G90
S20000
G00 Z12.7000 
G00 X0.0000 Y0.0000 
M03
G04 P3.000000
M05
G00 Z20.0000 
M06 T01 (0.6000 )
G01 Z0.0000 F508.00 
M06 
G00 Z2.5400 
M03
G04 P3.000000
G82 X-10.1600 Y48.2600 Z-0.8128 F508.00 R2.5400 P1.000000
G82 X-11.4300 Y45.7200 
G82 X-11.4300 Y52.0700 
G82 X-10.1600 Y54.6100 
G82 X-31.2400 Y52.0700 
G82 X-35.5600 Y50.8000 
G82 X-40.6400 Y57.1500 
G82 X-49.5300 Y50.8000 
G82 X-54.6100 Y52.0700 
G82 X-54.6100 Y58.4200 
G82 X-60.9600 Y57.1500 
G82 X-63.5000 Y58.4200 
G82 X-62.2300 Y45.0850 
G82 X-52.7050 Y45.0850 
M05
G00 Z20.0000 
G00 X0.0000 Y0.0000 
M06 T02 (0.9144 )
G01 Z0.0000 F508.00 
M06 
G00 Z2.5400 
M03
G04 P3.000000
G82 X-1.2700 Y73.6600 Z-0.8128 F508.00 R2.5400 P1.000000
G82 X-16.5100 Y73.6600 
G82 X-24.1300 Y74.9300 
G82 X-39.3700 Y74.9300 
M05
G00 Z20.0000 
G00 X0.0000 Y0.0000 
M06 T03 (1.0000 )
G01 Z0.0000 F508.00 
M06 
G00 Z2.5400 
M03
G04 P3.000000
G82 X-22.6100 Y47.2500 Z-0.8128 F508.00 R2.5400 P1.000000
G82 X-25.1500 Y47.2500 
G82 X-27.6900 Y47.2500 
G82 X-30.2300 Y47.2500 
G82 X-32.7700 Y47.2500 
G82 X-35.3100 Y47.2500 
G82 X-37.8500 Y47.2500 
G82 X-40.3900 Y47.2500 
G82 X-42.9300 Y47.2500 
G82 X-45.4700 Y47.2500 
G82 X-48.0100 Y47.2500 
G82 X-50.5500 Y47.2500 
G82 X-53.0900 Y47.2500 
G82 X-55.6300 Y47.2500 
G82 X-58.1700 Y47.2500 
G82 X-60.7100 Y47.2500 
M05
G00 Z20.0000 
G00 X0.0000 Y0.0000 
M06 T04 (1.0160 )
G01 Z0.0000 F508.00 
M06 
G00 Z2.5400 
M03
G04 P3.000000
G82 X-4.3688 Y25.6794 Z-0.8128 F508.00 R2.5400 P1.000000
G82 X-4.3688 Y30.2006 
G82 X-10.8712 Y30.2006 
G82 X-10.8712 Y25.6794 
G82 X-10.8712 Y37.1094 
G82 X-10.8712 Y41.6306 
G82 X-4.3688 Y41.6306 
G82 X-4.3688 Y37.1094 
G82 X-19.0500 Y54.6100 
G82 X-21.5900 Y54.6100 
G82 X-24.1300 Y54.6100 
G82 X-26.6700 Y54.6100 
G82 X-29.2100 Y54.6100 
G82 X-31.7500 Y54.6100 
G82 X-34.2900 Y54.6100 
G82 X-36.8300 Y54.6100 
G82 X-39.3700 Y54.6100 
G82 X-41.9100 Y54.6100 
G82 X-44.4500 Y54.6100 
G82 X-46.9900 Y54.6100 
G82 X-49.5300 Y54.6100 
G82 X-52.0700 Y54.6100 
G82 X-54.6100 Y54.6100 
G82 X-54.6100 Y69.8500 
G82 X-52.0700 Y69.8500 
G82 X-49.5300 Y69.8500 
G82 X-46.9900 Y69.8500 
G82 X-44.4500 Y69.8500 
G82 X-41.9100 Y69.8500 
G82 X-39.3700 Y69.8500 
G82 X-36.8300 Y69.8500 
G82 X-34.2900 Y69.8500 
G82 X-31.7500 Y69.8500 
G82 X-29.2100 Y69.8500 
G82 X-26.6700 Y69.8500 
G82 X-24.1300 Y69.8500 
G82 X-21.5900 Y69.8500 
G82 X-19.0500 Y69.8500 
G82 X-19.1516 Y64.7446 
G82 X-16.6116 Y64.7446 
G82 X-16.6116 Y62.2046 
G82 X-16.6116 Y59.6646 
G82 X-19.1516 Y59.6646 
G82 X-19.1516 Y62.2046 
G82 X-11.4300 Y77.4700 
G82 X-8.8900 Y77.4700 
G82 X-44.4500 Y74.9300 
G82 X-46.9900 Y74.9300 
G82 X-49.5300 Y74.9300 
G82 X-54.6100 Y74.9300 
G82 X-57.1500 Y74.9300 
M05
G00 Z20.0000 
G00 X0.0000 Y0.0000 
M06 T05 (1.3208 )
G01 Z0.0000 F508.00 
M06 
G00 Z2.5400 
M03
G04 P3.000000
G82 X-2.5400 Y54.6100 Z-0.8128 F508.00 R2.5400 P1.000000
G82 X-12.7000 Y54.6100 
G82 X-7.6200 Y67.3100 
M05
G00 Z20.0000 
G00 X0.0000 Y0.0000 
M06 T06 (1.6510 )
G01 Z0.0000 F508.00 
M06 
G00 Z2.5400 
M03
G04 P3.000000
G82 X-16.5100 Y54.6100 Z-0.8128 F508.00 R2.5400 P1.000000
G82 X-16.5100 Y69.8500 
G82 X-57.1500 Y69.8500 
G82 X-57.1500 Y54.6100 
M05
G00 Z20.0000 
G00 X0.0000 Y0.0000 
M06 T07 (2.5000 )
G01 Z0.0000 F508.00 
M06 
G00 Z2.5400 
M03
G04 P3.000000
G82 X-17.1100 Y16.2500 Z-0.8128 F508.00 R2.5400 P1.000000
G82 X-17.1100 Y47.2500 
G82 X-92.1100 Y47.2500 
G82 X-92.1100 Y16.2500 
M05
G00 Z20.0000 
G00 X0.0000 Y0.0000 
M06 T08 (3.2000 )
G01 Z0.0000 F508.00 
M06 
G00 Z2.5400 
M03
G04 P3.000000
G82 X-2.5400 Y47.6250 Z-0.8128 F508.00 R2.5400 P1.000000
G82 X-64.7700 Y74.9300 
T01 
G00 Z12.7000 
M05
M02
