(.../pcb-gcode-3.6.2.4/pcb-gcode.ulp)
(Copyright 2005 - 2012 by John Johnson)
(See readme.txt for licensing terms.)
(This file generated from the board:)
(.../honigtopf/Honigtopf_Steuerung.brd)
(Current profile is .../pcb-gcode-3.6.2.4/profiles/emc.pp  )
(This file generated 05.05.2017 12:39)
(Settings from pcb-machine.h)
(spindle on time = 3.0000)
(spindle speed = 15000.0000)
(milling depth = -0.2000)
(tool change at 0.0000 0.0000 20.0000 )
(feed rate xy = F254.00 )
(feed rate z  = F127.00 )
(Z Axis Settings)
(  High     Up        Down     Drill)
(12.7000 	2.5400 	-0.1778 	-0.8128 )
(Settings from pcb-defaults.h)
(isolate min = 0.0254)
(isolate max = 0.5080)
(isolate step = 0.1270)
(Generated bottom outlines, bottom drill, bottom stencil)
(Unit of measure: mm)
(Metric Mode)
G21
(Absolute Coordinates)
G90
S15000
G00 Z12.7000 
G00 X0.0000 Y0.0000 
M03
G04 P3.000000
G00 Z2.5400 
G00 X-1.2700 Y22.8600 
G01 Z-0.2000 F127.00 
G01 X-1.2700 Y80.0100 F254.00 
G01 X68.5800 Y80.0100 
G01 X68.5800 Y41.9100 
G01 X16.5100 Y41.9100 
G01 X16.5100 Y22.8600 
G01 X-1.2700 Y22.8600 
G00 Z12.7000 
M05
M02
