(.../pcb-gcode-3.6.2.4/pcb-gcode.ulp)
(Copyright 2005 - 2012 by John Johnson)
(See readme.txt for licensing terms.)
(This file generated from the board:)
(.../honigtopf/Honigtopf_Steuerung.brd)
(Current profile is .../pcb-gcode-3.6.2.4/profiles/emc.pp  )
(This file generated 05.05.2017 12:40)
(Settings from pcb-machine.h)
(spindle on time = 3.0000)
(  Tool Size)
(0.1000 )
(spindle speed = 30000.0000)
(tool change at 0.0000 0.0000 20.0000 )
(feed rate xy = F508.00 )
(feed rate z  = F254.00 )
(Z Axis Settings)
(  High     Up        Down     Drill)
(12.7000 	2.5400 	-0.1778 	-0.8128 )
(Settings from pcb-defaults.h)
(isolate min = 0.0254)
(isolate max = 0.5080)
(isolate step = 0.1270)
(Generated bottom outlines, bottom drill, bottom stencil)
(Unit of measure: mm)
(Metric Mode)
G21
(Absolute Coordinates)
G90
S30000
G00 Z12.7000 
G00 X0.0000 Y0.0000 
M03
G04 P3.000000
G00 Z2.5400 
G00 X1.1543 Y22.7338 
G01 Z-0.1778 F254.00 
G01 X1.2251 Y22.7528 F508.00 
G01 X1.2887 Y22.7895 
G01 X1.3405 Y22.8413 
G01 X1.3772 Y22.9049 
G01 X1.3962 Y22.9757 
G01 X1.3962 Y45.4888 
G01 X1.3982 Y45.5150 
G01 X1.3962 Y45.5254 
G01 X1.3962 Y45.5359 
G01 X1.3894 Y45.5613 
G01 X1.3845 Y45.5871 
G01 X1.3799 Y45.5966 
G01 X1.3772 Y45.6068 
G01 X1.3641 Y45.6295 
G01 X1.3527 Y45.6532 
G01 X1.3458 Y45.6612 
G01 X1.3405 Y45.6703 
G01 X1.3220 Y45.6889 
G01 X1.3048 Y45.7088 
G01 X1.2961 Y45.7147 
G01 X1.2887 Y45.7222 
G01 X1.2659 Y45.7353 
G01 X1.2442 Y45.7501 
G01 X1.2343 Y45.7536 
G01 X1.2251 Y45.7589 
G01 X1.1998 Y45.7656 
G01 X1.1750 Y45.7743 
G01 X1.1645 Y45.7751 
G01 X1.1543 Y45.7778 
G01 X1.1280 Y45.7778 
G01 X1.1018 Y45.7798 
G01 X1.0915 Y45.7778 
G01 X1.0809 Y45.7778 
G01 X1.0556 Y45.7710 
G01 X1.0298 Y45.7662 
G01 X1.0203 Y45.7616 
G01 X1.0101 Y45.7589 
G01 X0.9873 Y45.7457 
G01 X0.9637 Y45.7343 
G01 X0.9557 Y45.7274 
G01 X0.9465 Y45.7222 
G01 X0.9280 Y45.7036 
G01 X0.9081 Y45.6865 
G01 X0.9021 Y45.6778 
G01 X0.8947 Y45.6703 
G01 X0.8815 Y45.6475 
G01 X0.3815 Y44.9142 
G01 X-0.5473 Y44.1735 
G01 X-1.6531 Y43.7395 
G01 X-2.8378 Y43.6507 
G01 X-3.9961 Y43.9150 
G01 X-5.0249 Y44.5090 
G01 X-5.8329 Y45.3799 
G01 X-6.3484 Y46.4503 
G01 X-6.5255 Y47.6250 
G01 X-6.3484 Y48.7997 
G01 X-5.8329 Y49.8701 
G01 X-5.0249 Y50.7409 
G01 X-3.9961 Y51.3349 
G01 X-2.8378 Y51.5993 
G01 X-1.6531 Y51.5105 
G01 X-0.5473 Y51.0765 
G01 X0.3815 Y50.3358 
G01 X0.8815 Y49.6025 
G01 X0.8947 Y49.5797 
G01 X0.9021 Y49.5722 
G01 X0.9081 Y49.5635 
G01 X0.9280 Y49.5464 
G01 X0.9465 Y49.5278 
G01 X0.9557 Y49.5225 
G01 X0.9637 Y49.5157 
G01 X0.9873 Y49.5043 
G01 X1.0101 Y49.4911 
G01 X1.0203 Y49.4884 
G01 X1.0298 Y49.4838 
G01 X1.0556 Y49.4790 
G01 X1.0809 Y49.4722 
G01 X1.0915 Y49.4722 
G01 X1.1018 Y49.4702 
G01 X1.1280 Y49.4722 
G01 X1.1543 Y49.4722 
G01 X1.1645 Y49.4749 
G01 X1.1750 Y49.4757 
G01 X1.1998 Y49.4843 
G01 X1.2251 Y49.4911 
G01 X1.2343 Y49.4964 
G01 X1.2442 Y49.4999 
G01 X1.2659 Y49.5147 
G01 X1.2887 Y49.5278 
G01 X1.2961 Y49.5353 
G01 X1.3048 Y49.5412 
G01 X1.3220 Y49.5611 
G01 X1.3405 Y49.5797 
G01 X1.3458 Y49.5888 
G01 X1.3527 Y49.5968 
G01 X1.3641 Y49.6205 
G01 X1.3772 Y49.6432 
G01 X1.3799 Y49.6534 
G01 X1.3845 Y49.6629 
G01 X1.3894 Y49.6887 
G01 X1.3962 Y49.7141 
G01 X1.3962 Y49.7246 
G01 X1.3982 Y49.7350 
G01 X1.3962 Y49.7612 
G01 X1.3962 Y79.8943 
G01 X1.3772 Y79.9651 
G01 X1.3405 Y80.0287 
G01 X1.2887 Y80.0805 
G01 X1.2251 Y80.1172 
G01 X1.1543 Y80.1362 
G01 X-68.4643 Y80.1362 
G01 X-68.5351 Y80.1172 
G01 X-68.5987 Y80.0805 
G01 X-68.6505 Y80.0287 
G01 X-68.6872 Y79.9651 
G01 X-68.7062 Y79.8943 
G01 X-68.7062 Y77.0861 
G01 X-68.7082 Y77.0757 
G01 X-68.7062 Y77.0495 
G01 X-68.7062 Y77.0233 
G01 X-68.7035 Y77.0131 
G01 X-68.7027 Y77.0025 
G01 X-68.6940 Y76.9778 
G01 X-68.6872 Y76.9524 
G01 X-68.6819 Y76.9433 
G01 X-68.6784 Y76.9333 
G01 X-68.6637 Y76.9116 
G01 X-68.6505 Y76.8889 
G01 X-68.6431 Y76.8814 
G01 X-68.6371 Y76.8727 
G01 X-68.6172 Y76.8556 
G01 X-68.5987 Y76.8370 
G01 X-68.5895 Y76.8317 
G01 X-68.5815 Y76.8249 
G01 X-68.5579 Y76.8135 
G01 X-68.5351 Y76.8003 
G01 X-68.5249 Y76.7976 
G01 X-68.5154 Y76.7930 
G01 X-68.4896 Y76.7881 
G01 X-68.4643 Y76.7814 
G01 X-68.4537 Y76.7814 
G01 X-68.4434 Y76.7794 
G01 X-68.4172 Y76.7814 
G01 X-68.3909 Y76.7814 
G01 X-68.3807 Y76.7841 
G01 X-68.3702 Y76.7849 
G01 X-68.3454 Y76.7935 
G01 X-68.3201 Y76.8003 
G01 X-68.3109 Y76.8056 
G01 X-68.3010 Y76.8091 
G01 X-68.2793 Y76.8239 
G01 X-68.2565 Y76.8370 
G01 X-68.2491 Y76.8445 
G01 X-68.2404 Y76.8504 
G01 X-68.2232 Y76.8703 
G01 X-68.2047 Y76.8889 
G01 X-68.1994 Y76.8980 
G01 X-68.1925 Y76.9060 
G01 X-68.1811 Y76.9297 
G01 X-68.1680 Y76.9524 
G01 X-68.1653 Y76.9626 
G01 X-68.0629 Y77.1751 
G01 X-67.2549 Y78.0459 
G01 X-66.2261 Y78.6399 
G01 X-65.0678 Y78.9043 
G01 X-63.8831 Y78.8155 
G01 X-62.7773 Y78.3815 
G01 X-61.8485 Y77.6408 
G01 X-61.1792 Y76.6592 
G01 X-60.8291 Y75.5240 
G01 X-60.8291 Y74.3360 
G01 X-61.1792 Y73.2008 
G01 X-61.8485 Y72.2192 
G01 X-62.7773 Y71.4785 
G01 X-63.8831 Y71.0445 
G01 X-65.0678 Y70.9557 
G01 X-66.2260 Y71.2200 
G01 X-67.2549 Y71.8140 
G01 X-68.0629 Y72.6849 
G01 X-68.1653 Y72.8974 
G01 X-68.1680 Y72.9076 
G01 X-68.1811 Y72.9303 
G01 X-68.1925 Y72.9540 
G01 X-68.1994 Y72.9620 
G01 X-68.2047 Y72.9711 
G01 X-68.2232 Y72.9897 
G01 X-68.2404 Y73.0096 
G01 X-68.2491 Y73.0155 
G01 X-68.2565 Y73.0230 
G01 X-68.2793 Y73.0361 
G01 X-68.3010 Y73.0509 
G01 X-68.3109 Y73.0544 
G01 X-68.3201 Y73.0597 
G01 X-68.3454 Y73.0665 
G01 X-68.3702 Y73.0751 
G01 X-68.3807 Y73.0759 
G01 X-68.3909 Y73.0786 
G01 X-68.4172 Y73.0786 
G01 X-68.4434 Y73.0806 
G01 X-68.4537 Y73.0786 
G01 X-68.4643 Y73.0786 
G01 X-68.4896 Y73.0718 
G01 X-68.5154 Y73.0670 
G01 X-68.5249 Y73.0624 
G01 X-68.5351 Y73.0597 
G01 X-68.5579 Y73.0465 
G01 X-68.5815 Y73.0351 
G01 X-68.5895 Y73.0283 
G01 X-68.5987 Y73.0230 
G01 X-68.6172 Y73.0044 
G01 X-68.6371 Y72.9873 
G01 X-68.6431 Y72.9786 
G01 X-68.6505 Y72.9711 
G01 X-68.6637 Y72.9484 
G01 X-68.6784 Y72.9267 
G01 X-68.6819 Y72.9167 
G01 X-68.6872 Y72.9076 
G01 X-68.6940 Y72.8822 
G01 X-68.7027 Y72.8574 
G01 X-68.7035 Y72.8469 
G01 X-68.7062 Y72.8367 
G01 X-68.7062 Y72.8105 
G01 X-68.7082 Y72.7843 
G01 X-68.7062 Y72.7739 
G01 X-68.7062 Y42.0257 
G01 X-68.6872 Y41.9549 
G01 X-68.6505 Y41.8913 
G01 X-68.5987 Y41.8395 
G01 X-68.5351 Y41.8028 
G01 X-68.4643 Y41.7838 
G01 X-17.0438 Y41.7838 
G01 X-16.8568 Y41.7063 
G01 X-16.8375 Y41.6871 
G01 X-16.7740 Y41.6504 
G01 X-16.7705 Y41.6495 
G01 X-16.7696 Y41.6460 
G01 X-16.7621 Y41.6330 
G01 X-16.7329 Y41.5825 
G01 X-16.7137 Y41.5632 
G01 X-16.6362 Y41.3762 
G01 X-16.6362 Y22.9757 
G01 X-16.6172 Y22.9049 
G01 X-16.5805 Y22.8413 
G01 X-16.5287 Y22.7895 
G01 X-16.4651 Y22.7528 
G01 X-16.3943 Y22.7338 
G01 X1.1543 Y22.7338 
G00 Z2.5400 
G00 X-3.1315 Y24.9681 
G01 Z-0.1778 F254.00 
G01 X-3.4399 Y24.8404 F508.00 
G01 X-5.2977 Y24.8404 
G01 X-5.6060 Y24.9681 
G01 X-5.8421 Y25.2041 
G01 X-5.9698 Y25.5125 
G01 X-5.9698 Y25.8463 
G01 X-5.8421 Y26.1547 
G01 X-5.7641 Y26.2326 
G01 X-5.7123 Y26.2845 
G01 X-5.6756 Y26.3480 
G01 X-5.6615 Y26.4007 
G01 X-5.6566 Y26.4188 
G01 X-5.6566 Y26.4922 
G01 X-5.6756 Y26.5631 
G01 X-5.7123 Y26.6266 
G01 X-7.9002 Y28.8145 
G01 X-7.9002 Y30.2852 
G01 X-7.9192 Y30.3561 
G01 X-7.9554 Y30.4188 
G01 X-11.4385 Y33.9023 
G01 X-11.4904 Y33.9541 
G01 X-11.5539 Y33.9908 
G01 X-11.6248 Y34.0098 
G01 X-12.8161 Y34.0098 
G01 X-13.0359 Y34.2296 
G01 X-13.3435 Y34.5373 
G01 X-13.3954 Y34.5891 
G01 X-13.6152 Y34.8089 
G01 X-13.6152 Y40.4452 
G01 X-13.6342 Y40.5161 
G01 X-13.6709 Y40.5796 
G01 X-16.5185 Y43.4273 
G01 X-16.5704 Y43.4791 
G01 X-16.6339 Y43.5158 
G01 X-16.7048 Y43.5348 
G01 X-59.1711 Y43.5348 
G01 X-61.2255 Y45.5893 
G01 X-61.2538 Y45.6056 
G01 X-61.2891 Y45.6260 
G01 X-61.3316 Y45.6374 
G01 X-61.3599 Y45.6449 
G01 X-61.4333 Y45.6449 
G01 X-61.5041 Y45.6260 
G01 X-61.5677 Y45.5893 
G01 X-61.6195 Y45.5374 
G01 X-61.6359 Y45.5091 
G01 X-61.6562 Y45.4739 
G01 X-61.6676 Y45.4313 
G01 X-61.6752 Y45.4030 
G01 X-61.6752 Y44.5753 
G01 X-61.7203 Y44.5302 
G01 X-62.7397 Y44.5302 
G01 X-62.7848 Y44.5753 
G01 X-62.7848 Y45.6160 
G01 X-62.7773 Y45.6291 
G01 X-62.7614 Y45.6883 
G01 X-62.7583 Y45.6999 
G01 X-62.7583 Y45.7370 
G01 X-62.7583 Y45.7733 
G01 X-62.7649 Y45.7981 
G01 X-62.7773 Y45.8441 
G01 X-62.7982 Y45.8804 
G01 X-62.8139 Y45.9077 
G01 X-63.5085 Y46.6023 
G01 X-63.7802 Y46.8739 
G01 X-63.7802 Y57.6233 
G01 X-63.7992 Y57.6941 
G01 X-63.8359 Y57.7577 
G01 X-63.8877 Y57.8095 
G01 X-63.9513 Y57.8462 
G01 X-64.0051 Y57.8606 
G01 X-64.0548 Y57.9103 
G01 X-64.0548 Y58.9297 
G01 X-64.0097 Y58.9748 
G01 X-62.9903 Y58.9748 
G01 X-62.9452 Y58.9297 
G01 X-62.9452 Y57.9103 
G01 X-62.9948 Y57.8606 
G01 X-63.0487 Y57.8462 
G01 X-63.1123 Y57.8095 
G01 X-63.1641 Y57.7577 
G01 X-63.2008 Y57.6941 
G01 X-63.2198 Y57.6233 
G01 X-63.2198 Y47.1848 
G01 X-63.2008 Y47.1139 
G01 X-63.1641 Y47.0504 
G01 X-63.1123 Y46.9985 
G01 X-63.0117 Y46.8980 
G01 X-62.9599 Y46.8461 
G01 X-62.8963 Y46.8094 
G01 X-62.8437 Y46.7953 
G01 X-62.8255 Y46.7905 
G01 X-62.7521 Y46.7905 
G01 X-62.6813 Y46.8094 
G01 X-62.6177 Y46.8461 
G01 X-62.5659 Y46.8980 
G01 X-62.5292 Y46.9615 
G01 X-62.5151 Y47.0142 
G01 X-62.5102 Y47.0324 
G01 X-62.5102 Y55.9961 
G01 X-62.2904 Y56.2159 
G01 X-61.6223 Y56.8839 
G01 X-61.5705 Y56.9358 
G01 X-61.5338 Y56.9993 
G01 X-61.5148 Y57.0702 
G01 X-61.5148 Y57.6597 
G01 X-61.4697 Y57.7048 
G01 X-60.4503 Y57.7048 
G01 X-60.4199 Y57.6743 
G01 X-60.3720 Y57.6467 
G01 X-60.3563 Y57.6377 
G01 X-60.3226 Y57.6286 
G01 X-60.2855 Y57.6187 
G01 X-60.2121 Y57.6187 
G01 X-60.1413 Y57.6377 
G01 X-60.0942 Y57.6648 
G01 X-60.0777 Y57.6743 
G01 X-60.0259 Y57.7262 
G01 X-59.9982 Y57.7741 
G01 X-59.9892 Y57.7897 
G01 X-59.9802 Y57.8234 
G01 X-59.9702 Y57.8606 
G01 X-59.9702 Y76.3161 
G01 X-59.7504 Y76.5359 
G01 X-57.2661 Y79.0202 
G01 X-21.4739 Y79.0202 
G01 X-21.2541 Y78.8004 
G01 X-16.9841 Y74.5303 
G01 X-16.9322 Y74.4785 
G01 X-16.8687 Y74.4418 
G01 X-16.7978 Y74.4228 
G01 X-16.1940 Y74.4228 
G01 X-15.7472 Y73.9760 
G01 X-15.7472 Y73.3440 
G01 X-15.9195 Y73.1717 
G01 X-15.9714 Y73.1199 
G01 X-16.0081 Y73.0563 
G01 X-16.0270 Y72.9855 
G01 X-16.0270 Y72.9121 
G01 X-16.0081 Y72.8413 
G01 X-15.9714 Y72.7777 
G01 X-15.9195 Y72.7259 
G01 X-15.8560 Y72.6892 
G01 X-15.7851 Y72.6702 
G01 X-11.9521 Y72.6702 
G01 X-11.8813 Y72.6892 
G01 X-11.8177 Y72.7259 
G01 X-11.7659 Y72.7777 
G01 X-11.7292 Y72.8413 
G01 X-11.7102 Y72.9121 
G01 X-11.7102 Y75.7115 
G01 X-11.7086 Y75.7237 
G01 X-11.7086 Y72.6686 
G01 X-25.9974 Y72.6686 
G01 X-24.4712 Y74.1948 
G01 X-24.4453 Y74.1688 
G01 X-23.8147 Y74.1688 
G01 X-23.3688 Y74.6147 
G01 X-23.3688 Y75.2453 
G01 X-23.8147 Y75.6912 
G01 X-24.4453 Y75.6912 
G01 X-24.8912 Y75.2453 
G01 X-24.8912 Y74.6147 
G01 X-24.8652 Y74.5888 
G01 X-26.7854 Y72.6686 
G01 X-41.7946 Y72.6686 
G01 X-43.6126 Y74.4866 
G01 X-43.6126 Y75.7745 
G01 X-43.6448 Y75.9363 
G01 X-43.7079 Y76.0887 
G01 X-43.7995 Y76.2258 
G01 X-43.9162 Y76.3424 
G01 X-44.0533 Y76.4341 
G01 X-44.2057 Y76.4972 
G01 X-44.3675 Y76.5294 
G01 X-44.5325 Y76.5294 
G01 X-44.6943 Y76.4972 
G01 X-44.8467 Y76.4341 
G01 X-44.9838 Y76.3424 
G01 X-45.1005 Y76.2258 
G01 X-45.1921 Y76.0887 
G01 X-45.2552 Y75.9363 
G01 X-45.2874 Y75.7745 
G01 X-45.2874 Y74.0855 
G01 X-45.2552 Y73.9237 
G01 X-45.1921 Y73.7713 
G01 X-45.1005 Y73.6342 
G01 X-44.9838 Y73.5175 
G01 X-44.8467 Y73.4259 
G01 X-44.6943 Y73.3628 
G01 X-44.5325 Y73.3306 
G01 X-44.3675 Y73.3306 
G01 X-44.2057 Y73.3628 
G01 X-44.0533 Y73.4259 
G01 X-43.9162 Y73.5175 
G01 X-43.7995 Y73.6342 
G01 X-43.7079 Y73.7713 
G01 X-43.7013 Y73.7873 
G01 X-42.1329 Y72.2189 
G01 X-42.0811 Y72.1671 
G01 X-42.0175 Y72.1304 
G01 X-41.9467 Y72.1114 
G01 X-26.9486 Y72.1114 
G01 X-26.9486 Y70.7779 
G01 X-26.9513 Y70.7773 
G01 X-27.1268 Y70.7046 
G01 X-27.2848 Y70.5991 
G01 X-27.4191 Y70.4648 
G01 X-27.5246 Y70.3068 
G01 X-27.5973 Y70.1313 
G01 X-27.6344 Y69.9450 
G01 X-27.6344 Y69.7550 
G01 X-27.5973 Y69.5687 
G01 X-27.5246 Y69.3932 
G01 X-27.4191 Y69.2352 
G01 X-27.2848 Y69.1009 
G01 X-27.1268 Y68.9954 
G01 X-26.9513 Y68.9227 
G01 X-26.7650 Y68.8856 
G01 X-26.5750 Y68.8856 
G01 X-26.3887 Y68.9227 
G01 X-26.2132 Y68.9954 
G01 X-26.0552 Y69.1009 
G01 X-25.9209 Y69.2352 
G01 X-25.8154 Y69.3932 
G01 X-25.7427 Y69.5687 
G01 X-25.7056 Y69.7550 
G01 X-25.7056 Y69.9450 
G01 X-25.7427 Y70.1313 
G01 X-25.8154 Y70.3068 
G01 X-25.9209 Y70.4648 
G01 X-26.0552 Y70.5991 
G01 X-26.2132 Y70.7046 
G01 X-26.3887 Y70.7773 
G01 X-26.3914 Y70.7779 
G01 X-26.3914 Y72.1114 
G01 X-3.9254 Y72.1114 
G01 X-2.8186 Y71.0046 
G01 X-2.8186 Y55.6760 
G01 X-2.9815 Y55.6760 
G01 X-3.6060 Y55.0515 
G01 X-3.6060 Y54.1684 
G01 X-3.4908 Y54.0532 
G01 X-7.7354 Y49.8086 
G01 X-22.9067 Y49.8086 
G01 X-22.9775 Y49.7896 
G01 X-23.0411 Y49.7529 
G01 X-24.5927 Y48.2013 
G01 X-24.5852 Y48.2111 
G01 X-22.9861 Y49.8102 
G01 X-7.8148 Y49.8102 
G01 X-7.7439 Y49.8292 
G01 X-7.6804 Y49.8659 
G01 X-3.7151 Y53.8311 
G01 X-3.6633 Y53.8830 
G01 X-3.6266 Y53.9465 
G01 X-3.6076 Y54.0174 
G01 X-3.6076 Y55.0522 
G01 X-2.9277 Y55.7321 
G01 X-2.8759 Y55.7839 
G01 X-2.8392 Y55.8475 
G01 X-2.8202 Y55.9183 
G01 X-2.8202 Y70.9252 
G01 X-2.8392 Y70.9961 
G01 X-2.8759 Y71.0596 
G01 X-3.8185 Y72.0023 
G01 X-3.8704 Y72.0541 
G01 X-3.9339 Y72.0908 
G01 X-4.0048 Y72.1098 
G01 X-26.1479 Y72.1098 
G01 X-26.2187 Y72.0908 
G01 X-26.2823 Y72.0541 
G01 X-26.3341 Y72.0023 
G01 X-26.3708 Y71.9387 
G01 X-26.3898 Y71.8679 
G01 X-26.3898 Y71.7310 
G01 X-26.3708 Y71.6602 
G01 X-26.3341 Y71.5966 
G01 X-26.2823 Y71.5448 
G01 X-26.2187 Y71.5081 
G01 X-26.1479 Y71.4891 
G01 X-15.1666 Y71.4891 
G01 X-15.0309 Y71.4329 
G01 X-14.9271 Y71.3291 
G01 X-14.8709 Y71.1934 
G01 X-14.8709 Y53.2666 
G01 X-14.9271 Y53.1309 
G01 X-15.0309 Y53.0271 
G01 X-15.1666 Y52.9709 
G01 X-29.0787 Y52.9709 
G01 X-29.1175 Y52.9605 
G01 X-29.1496 Y52.9519 
G01 X-29.1602 Y52.9458 
G01 X-29.2131 Y52.9152 
G01 X-29.2650 Y52.8634 
G01 X-29.3017 Y52.7998 
G01 X-29.3206 Y52.7290 
G01 X-29.3206 Y52.6556 
G01 X-29.3102 Y52.6168 
G01 X-29.3017 Y52.5848 
G01 X-29.2955 Y52.5741 
G01 X-29.2650 Y52.5212 
G01 X-29.2131 Y52.4694 
G01 X-29.2015 Y52.4577 
G01 X-29.1496 Y52.4059 
G01 X-29.0861 Y52.3692 
G01 X-29.0152 Y52.3502 
G01 X-12.2267 Y52.3502 
G01 X-12.1559 Y52.3692 
G01 X-12.0923 Y52.4059 
G01 X-12.0405 Y52.4577 
G01 X-12.0038 Y52.5213 
G01 X-11.9893 Y52.5751 
G01 X-11.9397 Y52.6248 
G01 X-10.9203 Y52.6248 
G01 X-10.8752 Y52.5797 
G01 X-10.8752 Y51.5603 
G01 X-10.9056 Y51.5299 
G01 X-10.9333 Y51.4820 
G01 X-10.9423 Y51.4663 
G01 X-10.9513 Y51.4326 
G01 X-10.9613 Y51.3955 
G01 X-10.9613 Y51.3221 
G01 X-10.9423 Y51.2513 
G01 X-10.9152 Y51.2042 
G01 X-10.9056 Y51.1877 
G01 X-10.8538 Y51.1359 
G01 X-10.8059 Y51.1082 
G01 X-10.7903 Y51.0992 
G01 X-10.7566 Y51.0902 
G01 X-10.7194 Y51.0802 
G01 X-9.0848 Y51.0802 
G01 X-9.0139 Y51.0992 
G01 X-8.9504 Y51.1359 
G01 X-8.0077 Y52.0785 
G01 X-7.9559 Y52.1304 
G01 X-7.9192 Y52.1939 
G01 X-7.9002 Y52.2648 
G01 X-7.9002 Y66.0017 
G01 X-7.9192 Y66.0725 
G01 X-7.9559 Y66.1360 
G01 X-8.6876 Y66.8678 
G01 X-8.6876 Y67.7522 
G01 X-8.0622 Y68.3776 
G01 X-7.1778 Y68.3776 
G01 X-6.5524 Y67.7522 
G01 X-6.5524 Y66.8678 
G01 X-7.2323 Y66.1879 
G01 X-7.2841 Y66.1360 
G01 X-7.3208 Y66.0725 
G01 X-7.3398 Y66.0017 
G01 X-7.3398 Y51.9539 
G01 X-8.5023 Y50.7915 
G01 X-8.7739 Y50.5198 
G01 X-23.9452 Y50.5198 
G01 X-24.0161 Y50.5008 
G01 X-24.0796 Y50.4641 
G01 X-26.7289 Y47.8148 
G01 X-26.7387 Y47.8073 
G01 X-24.0246 Y50.5214 
G01 X-8.8533 Y50.5214 
G01 X-8.7825 Y50.5404 
G01 X-8.7189 Y50.5771 
G01 X-8.6671 Y50.6289 
G01 X-7.3971 Y51.8989 
G01 X-7.3604 Y51.9625 
G01 X-7.3414 Y52.0333 
G01 X-7.3414 Y66.2440 
G01 X-7.1784 Y66.2440 
G01 X-6.5540 Y66.8684 
G01 X-6.5540 Y67.7515 
G01 X-7.1784 Y68.3760 
G01 X-8.0616 Y68.3760 
G01 X-8.6860 Y67.7515 
G01 X-8.6860 Y66.8684 
G01 X-8.0616 Y66.2440 
G01 X-7.8986 Y66.2440 
G01 X-7.8986 Y52.1854 
G01 X-9.0054 Y51.0786 
G01 X-24.1767 Y51.0786 
G01 X-24.2475 Y51.0596 
G01 X-24.3111 Y51.0229 
G01 X-27.1327 Y48.2013 
G01 X-27.1252 Y48.2111 
G01 X-24.2561 Y51.0802 
G01 X-12.1406 Y51.0802 
G01 X-12.1018 Y51.0906 
G01 X-12.0698 Y51.0992 
G01 X-12.0513 Y51.1098 
G01 X-12.0062 Y51.1359 
G01 X-11.9543 Y51.1877 
G01 X-11.9442 Y51.2053 
G01 X-11.9177 Y51.2513 
G01 X-11.8987 Y51.3221 
G01 X-11.8987 Y51.3955 
G01 X-11.9091 Y51.4343 
G01 X-11.9177 Y51.4663 
G01 X-11.9283 Y51.4848 
G01 X-11.9543 Y51.5299 
G01 X-11.9893 Y51.5649 
G01 X-12.0038 Y51.6187 
G01 X-12.0405 Y51.6823 
G01 X-12.0923 Y51.7341 
G01 X-12.1559 Y51.7708 
G01 X-12.2267 Y51.7898 
G01 X-29.3261 Y51.7898 
G01 X-29.5459 Y52.0096 
G01 X-30.1837 Y52.6474 
G01 X-30.2355 Y52.6993 
G01 X-30.2991 Y52.7360 
G01 X-30.3699 Y52.7549 
G01 X-30.4433 Y52.7549 
G01 X-30.5141 Y52.7360 
G01 X-30.5777 Y52.6993 
G01 X-30.6295 Y52.6474 
G01 X-30.6662 Y52.5839 
G01 X-30.6852 Y52.5130 
G01 X-30.6852 Y51.4802 
G01 X-30.6662 Y51.4093 
G01 X-30.6295 Y51.3458 
G01 X-30.4715 Y51.1877 
G01 X-30.1998 Y50.9161 
G01 X-30.1998 Y48.4325 
G01 X-30.2014 Y48.4203 
G01 X-30.2014 Y50.8367 
G01 X-30.2204 Y50.9075 
G01 X-30.2571 Y50.9711 
G01 X-30.3089 Y51.0229 
G01 X-30.8028 Y51.5168 
G01 X-30.7472 Y51.5168 
G01 X-30.7195 Y51.5283 
G01 X-30.6983 Y51.5495 
G01 X-30.6868 Y51.5772 
G01 X-30.6868 Y52.5628 
G01 X-30.6983 Y52.5905 
G01 X-30.7195 Y52.6117 
G01 X-30.7472 Y52.6232 
G01 X-31.7328 Y52.6232 
G01 X-31.7605 Y52.6117 
G01 X-31.7817 Y52.5905 
G01 X-31.7932 Y52.5628 
G01 X-31.7932 Y51.5772 
G01 X-31.7817 Y51.5495 
G01 X-31.7605 Y51.5283 
G01 X-31.7328 Y51.5168 
G01 X-31.5169 Y51.5168 
G01 X-31.4996 Y51.4525 
G01 X-31.4629 Y51.3889 
G01 X-30.7586 Y50.6846 
G01 X-30.7586 Y47.9956 
G01 X-30.8124 Y47.9596 
G01 X-30.9396 Y47.8324 
G01 X-31.0396 Y47.6827 
G01 X-31.1085 Y47.5165 
G01 X-31.1436 Y47.3400 
G01 X-31.1436 Y47.1600 
G01 X-31.1085 Y46.9835 
G01 X-31.0396 Y46.8172 
G01 X-30.9396 Y46.6676 
G01 X-30.8124 Y46.5404 
G01 X-30.6627 Y46.4404 
G01 X-30.4965 Y46.3715 
G01 X-30.3200 Y46.3364 
G01 X-30.1400 Y46.3364 
G01 X-29.9635 Y46.3715 
G01 X-29.7972 Y46.4404 
G01 X-29.6476 Y46.5404 
G01 X-29.5204 Y46.6676 
G01 X-29.4204 Y46.8172 
G01 X-29.3515 Y46.9835 
G01 X-29.3164 Y47.1600 
G01 X-29.3164 Y47.3400 
G01 X-29.3515 Y47.5165 
G01 X-29.4204 Y47.6827 
G01 X-29.5204 Y47.8324 
G01 X-29.6476 Y47.9596 
G01 X-29.7972 Y48.0596 
G01 X-29.9635 Y48.1285 
G01 X-30.1400 Y48.1636 
G01 X-30.2014 Y48.1636 
G01 X-30.2014 Y48.4082 
G01 X-30.1998 Y48.3960 
G01 X-30.1998 Y48.3776 
G01 X-30.1950 Y48.3598 
G01 X-30.1926 Y48.3415 
G01 X-30.1856 Y48.3245 
G01 X-30.1808 Y48.3067 
G01 X-30.1716 Y48.2908 
G01 X-30.1646 Y48.2737 
G01 X-30.1533 Y48.2591 
G01 X-30.1441 Y48.2432 
G01 X-30.1311 Y48.2302 
G01 X-30.1199 Y48.2155 
G01 X-30.1053 Y48.2043 
G01 X-30.0923 Y48.1913 
G01 X-30.0763 Y48.1821 
G01 X-30.0617 Y48.1709 
G01 X-30.0447 Y48.1638 
G01 X-30.0287 Y48.1546 
G01 X-30.0109 Y48.1499 
G01 X-29.7116 Y48.0259 
G01 X-29.4541 Y47.7684 
G01 X-29.3148 Y47.4320 
G01 X-29.3148 Y47.0679 
G01 X-29.4541 Y46.7316 
G01 X-29.7116 Y46.4741 
G01 X-30.0479 Y46.3348 
G01 X-30.4120 Y46.3348 
G01 X-30.7484 Y46.4741 
G01 X-31.0059 Y46.7316 
G01 X-31.1452 Y47.0679 
G01 X-31.1452 Y47.4320 
G01 X-31.0059 Y47.7684 
G01 X-30.8677 Y47.9066 
G01 X-30.8159 Y47.9584 
G01 X-30.7792 Y48.0219 
G01 X-30.7602 Y48.0928 
G01 X-30.7602 Y50.6052 
G01 X-30.7792 Y50.6761 
G01 X-30.8159 Y50.7396 
G01 X-31.4839 Y51.4077 
G01 X-31.5358 Y51.4595 
G01 X-31.5993 Y51.4962 
G01 X-31.6702 Y51.5152 
G01 X-31.7497 Y51.5152 
G01 X-31.7948 Y51.5603 
G01 X-31.7948 Y52.2630 
G01 X-31.8138 Y52.3339 
G01 X-31.8505 Y52.3974 
G01 X-31.9015 Y52.4485 
G01 X-31.9659 Y52.4860 
G01 X-32.0367 Y52.5049 
G01 X-32.1101 Y52.5049 
G01 X-32.1809 Y52.4860 
G01 X-32.2445 Y52.4493 
G01 X-32.2963 Y52.3974 
G01 X-32.6323 Y52.0615 
G01 X-32.9039 Y51.7898 
G01 X-34.0952 Y51.7898 
G01 X-34.1661 Y51.7708 
G01 X-34.2296 Y51.7341 
G01 X-34.2815 Y51.6823 
G01 X-34.8977 Y51.0661 
G01 X-34.9495 Y51.0142 
G01 X-34.9862 Y50.9507 
G01 X-35.0052 Y50.8798 
G01 X-35.0052 Y50.2903 
G01 X-35.0503 Y50.2452 
G01 X-36.0697 Y50.2452 
G01 X-36.1148 Y50.2903 
G01 X-36.1148 Y51.3097 
G01 X-36.0697 Y51.3548 
G01 X-35.4802 Y51.3548 
G01 X-35.4093 Y51.3738 
G01 X-35.3458 Y51.4105 
G01 X-34.8330 Y51.9233 
G01 X-34.7811 Y51.9751 
G01 X-34.7444 Y52.0387 
G01 X-34.7255 Y52.1095 
G01 X-34.7255 Y52.1829 
G01 X-34.7444 Y52.2537 
G01 X-34.7811 Y52.3173 
G01 X-34.8330 Y52.3691 
G01 X-34.8965 Y52.4058 
G01 X-34.9674 Y52.4248 
G01 X-36.0002 Y52.4248 
G01 X-36.0711 Y52.4058 
G01 X-36.1346 Y52.3691 
G01 X-39.6173 Y48.8865 
G01 X-39.6691 Y48.8346 
G01 X-39.8873 Y48.6165 
G01 X-39.8928 Y48.6172 
G01 X-39.9110 Y48.6148 
G01 X-39.9295 Y48.6148 
G01 X-39.9473 Y48.6100 
G01 X-39.9655 Y48.6076 
G01 X-39.9825 Y48.6006 
G01 X-40.0003 Y48.5958 
G01 X-40.0163 Y48.5866 
G01 X-40.0333 Y48.5796 
G01 X-40.0479 Y48.5683 
G01 X-40.0638 Y48.5591 
G01 X-40.0769 Y48.5461 
G01 X-40.0915 Y48.5349 
G01 X-40.1027 Y48.5203 
G01 X-40.1157 Y48.5073 
G01 X-40.1249 Y48.4913 
G01 X-40.1361 Y48.4767 
G01 X-40.1432 Y48.4597 
G01 X-40.1524 Y48.4437 
G01 X-40.1572 Y48.4259 
G01 X-40.1642 Y48.4089 
G01 X-40.1666 Y48.3907 
G01 X-40.1714 Y48.3729 
G01 X-40.1714 Y48.3545 
G01 X-40.1738 Y48.3362 
G01 X-40.1714 Y48.3179 
G01 X-40.1714 Y48.2995 
G01 X-40.1666 Y48.2817 
G01 X-40.1642 Y48.2635 
G01 X-40.1572 Y48.2465 
G01 X-40.1524 Y48.2287 
G01 X-40.1432 Y48.2127 
G01 X-40.1361 Y48.1957 
G01 X-40.1249 Y48.1811 
G01 X-40.1157 Y48.1651 
G01 X-40.1027 Y48.1521 
G01 X-40.0915 Y48.1375 
G01 X-40.0769 Y48.1263 
G01 X-40.0638 Y48.1133 
G01 X-40.0479 Y48.1041 
G01 X-40.0333 Y48.0928 
G01 X-40.0163 Y48.0858 
G01 X-40.0056 Y48.0797 
G01 X-40.1235 Y48.1285 
G01 X-40.3000 Y48.1636 
G01 X-40.4800 Y48.1636 
G01 X-40.6565 Y48.1285 
G01 X-40.7743 Y48.0797 
G01 X-40.7637 Y48.0858 
G01 X-40.7467 Y48.0928 
G01 X-40.7321 Y48.1041 
G01 X-40.7162 Y48.1133 
G01 X-40.7031 Y48.1263 
G01 X-40.6885 Y48.1375 
G01 X-40.6773 Y48.1521 
G01 X-40.6643 Y48.1651 
G01 X-40.6551 Y48.1811 
G01 X-40.6439 Y48.1957 
G01 X-40.6368 Y48.2127 
G01 X-40.6276 Y48.2287 
G01 X-40.6228 Y48.2465 
G01 X-40.6158 Y48.2635 
G01 X-40.6134 Y48.2817 
G01 X-40.6086 Y48.2995 
G01 X-40.6086 Y48.3179 
G01 X-40.6062 Y48.3362 
G01 X-40.6086 Y48.3545 
G01 X-40.6086 Y48.3729 
G01 X-40.6134 Y48.3907 
G01 X-40.6158 Y48.4089 
G01 X-40.6228 Y48.4259 
G01 X-40.6276 Y48.4437 
G01 X-40.6368 Y48.4597 
G01 X-40.6439 Y48.4767 
G01 X-40.6551 Y48.4913 
G01 X-40.6643 Y48.5073 
G01 X-40.6773 Y48.5203 
G01 X-40.6885 Y48.5349 
G01 X-40.7031 Y48.5461 
G01 X-40.7162 Y48.5591 
G01 X-40.7321 Y48.5683 
G01 X-40.7467 Y48.5796 
G01 X-40.7637 Y48.5866 
G01 X-40.7797 Y48.5958 
G01 X-40.7975 Y48.6006 
G01 X-40.8145 Y48.6076 
G01 X-40.8327 Y48.6100 
G01 X-40.8505 Y48.6148 
G01 X-40.8690 Y48.6148 
G01 X-40.8812 Y48.6164 
G01 X-39.9683 Y48.6164 
G01 X-39.8975 Y48.6354 
G01 X-39.8339 Y48.6721 
G01 X-39.7821 Y48.7239 
G01 X-36.0796 Y52.4264 
G01 X-33.6183 Y52.4264 
G01 X-33.5475 Y52.4454 
G01 X-33.4839 Y52.4821 
G01 X-32.7971 Y53.1689 
G01 X-32.7604 Y53.2325 
G01 X-32.7414 Y53.3033 
G01 X-32.7414 Y55.9167 
G01 X-32.7604 Y55.9875 
G01 X-32.7971 Y56.0511 
G01 X-32.8489 Y56.1029 
G01 X-34.1189 Y57.3729 
G01 X-34.1825 Y57.4096 
G01 X-34.2533 Y57.4286 
G01 X-35.5967 Y57.4286 
G01 X-35.6675 Y57.4096 
G01 X-35.7311 Y57.3729 
G01 X-35.7829 Y57.3211 
G01 X-37.0529 Y56.0511 
G01 X-37.0896 Y55.9875 
G01 X-37.1086 Y55.9167 
G01 X-37.1086 Y55.5379 
G01 X-37.1113 Y55.5373 
G01 X-37.2868 Y55.4646 
G01 X-37.4448 Y55.3591 
G01 X-37.5791 Y55.2248 
G01 X-37.6846 Y55.0668 
G01 X-37.7573 Y54.8913 
G01 X-37.7944 Y54.7050 
G01 X-37.7944 Y54.5150 
G01 X-37.7573 Y54.3287 
G01 X-37.6846 Y54.1532 
G01 X-37.5791 Y53.9952 
G01 X-37.4448 Y53.8609 
G01 X-37.2868 Y53.7554 
G01 X-37.1113 Y53.6827 
G01 X-36.9250 Y53.6456 
G01 X-36.7350 Y53.6456 
G01 X-36.5487 Y53.6827 
G01 X-36.3732 Y53.7554 
G01 X-36.2152 Y53.8609 
G01 X-36.0809 Y53.9952 
G01 X-35.9754 Y54.1532 
G01 X-35.9027 Y54.3287 
G01 X-35.8656 Y54.5150 
G01 X-35.8656 Y54.7050 
G01 X-35.9027 Y54.8913 
G01 X-35.9754 Y55.0668 
G01 X-36.0809 Y55.2248 
G01 X-36.2152 Y55.3591 
G01 X-36.3732 Y55.4646 
G01 X-36.5487 Y55.5373 
G01 X-36.5514 Y55.5379 
G01 X-36.5514 Y55.7646 
G01 X-35.4446 Y56.8714 
G01 X-34.4054 Y56.8714 
G01 X-33.2986 Y55.7646 
G01 X-33.2986 Y53.4554 
G01 X-33.7704 Y52.9836 
G01 X-36.2317 Y52.9836 
G01 X-36.3025 Y52.9646 
G01 X-36.3661 Y52.9279 
G01 X-40.1204 Y49.1736 
G01 X-46.4017 Y49.1736 
G01 X-46.4725 Y49.1546 
G01 X-46.5361 Y49.1179 
G01 X-47.4527 Y48.2013 
G01 X-47.4452 Y48.2111 
G01 X-46.4811 Y49.1752 
G01 X-40.1998 Y49.1752 
G01 X-40.1289 Y49.1942 
G01 X-40.0654 Y49.2309 
G01 X-36.8269 Y52.4694 
G01 X-36.7750 Y52.5212 
G01 X-36.7383 Y52.5848 
G01 X-36.7194 Y52.6556 
G01 X-36.7194 Y52.7290 
G01 X-36.7383 Y52.7998 
G01 X-36.7750 Y52.8634 
G01 X-36.8269 Y52.9152 
G01 X-36.8904 Y52.9519 
G01 X-36.9613 Y52.9709 
G01 X-37.3591 Y52.9709 
G01 X-37.4300 Y52.9519 
G01 X-37.4927 Y52.9157 
G01 X-37.5373 Y52.8715 
G01 X-37.5454 Y52.8634 
G01 X-40.3041 Y50.1046 
G01 X-40.5239 Y49.8848 
G01 X-47.4402 Y49.8848 
G01 X-47.5111 Y49.8658 
G01 X-47.5746 Y49.8291 
G01 X-49.5889 Y47.8148 
G01 X-49.5987 Y47.8073 
G01 X-47.5196 Y49.8864 
G01 X-40.6033 Y49.8864 
G01 X-40.5325 Y49.9054 
G01 X-40.4689 Y49.9421 
G01 X-40.4171 Y49.9939 
G01 X-37.3496 Y53.0614 
G01 X-35.5233 Y53.0614 
G01 X-35.4525 Y53.0804 
G01 X-35.3889 Y53.1171 
G01 X-35.3371 Y53.1689 
G01 X-34.7491 Y53.7569 
G01 X-34.5713 Y53.6827 
G01 X-34.3850 Y53.6456 
G01 X-34.1950 Y53.6456 
G01 X-34.0087 Y53.6827 
G01 X-33.8332 Y53.7554 
G01 X-33.6752 Y53.8609 
G01 X-33.5409 Y53.9952 
G01 X-33.4354 Y54.1532 
G01 X-33.3627 Y54.3287 
G01 X-33.3256 Y54.5150 
G01 X-33.3256 Y54.7050 
G01 X-33.3627 Y54.8913 
G01 X-33.4354 Y55.0668 
G01 X-33.5409 Y55.2248 
G01 X-33.6752 Y55.3591 
G01 X-33.8332 Y55.4646 
G01 X-34.0087 Y55.5373 
G01 X-34.1950 Y55.5744 
G01 X-34.3850 Y55.5744 
G01 X-34.5713 Y55.5373 
G01 X-34.7468 Y55.4646 
G01 X-34.9048 Y55.3591 
G01 X-35.0391 Y55.2248 
G01 X-35.1446 Y55.0668 
G01 X-35.2173 Y54.8913 
G01 X-35.2544 Y54.7050 
G01 X-35.2544 Y54.5150 
G01 X-35.2173 Y54.3287 
G01 X-35.1446 Y54.1532 
G01 X-35.6754 Y53.6186 
G01 X-37.5017 Y53.6186 
G01 X-37.5725 Y53.5996 
G01 X-37.6361 Y53.5629 
G01 X-40.7554 Y50.4436 
G01 X-47.6717 Y50.4436 
G01 X-47.7425 Y50.4246 
G01 X-47.8061 Y50.3879 
G01 X-49.9927 Y48.2013 
G01 X-49.9852 Y48.2111 
G01 X-47.7511 Y50.4452 
G01 X-40.8348 Y50.4452 
G01 X-40.7639 Y50.4642 
G01 X-40.7004 Y50.5009 
G01 X-38.7319 Y52.4694 
G01 X-38.6800 Y52.5212 
G01 X-38.6433 Y52.5848 
G01 X-38.6244 Y52.6556 
G01 X-38.6244 Y52.7290 
G01 X-38.6433 Y52.7998 
G01 X-38.6800 Y52.8634 
G01 X-38.7319 Y52.9152 
G01 X-38.7954 Y52.9519 
G01 X-38.8663 Y52.9709 
G01 X-43.0741 Y52.9709 
G01 X-43.1450 Y52.9519 
G01 X-43.2085 Y52.9152 
G01 X-44.3339 Y51.7898 
G01 X-48.8194 Y51.7898 
G01 X-48.8582 Y51.7794 
G01 X-48.8902 Y51.7708 
G01 X-48.9087 Y51.7602 
G01 X-48.9538 Y51.7341 
G01 X-49.0056 Y51.6823 
G01 X-49.0158 Y51.6647 
G01 X-49.0423 Y51.6187 
G01 X-49.0613 Y51.5479 
G01 X-49.0613 Y51.4745 
G01 X-49.0509 Y51.4357 
G01 X-49.0423 Y51.4037 
G01 X-49.0317 Y51.3852 
G01 X-49.0056 Y51.3401 
G01 X-48.9752 Y51.3097 
G01 X-48.9752 Y50.2903 
G01 X-49.0203 Y50.2452 
G01 X-49.6098 Y50.2452 
G01 X-49.6807 Y50.2262 
G01 X-49.7442 Y50.1895 
G01 X-52.1260 Y47.8077 
G01 X-52.1358 Y47.8002 
G01 X-49.6892 Y50.2468 
G01 X-49.0372 Y50.2468 
G01 X-49.0095 Y50.2583 
G01 X-48.9883 Y50.2795 
G01 X-48.9768 Y50.3072 
G01 X-48.9768 Y51.2928 
G01 X-48.9883 Y51.3205 
G01 X-49.0095 Y51.3417 
G01 X-49.0372 Y51.3532 
G01 X-50.0228 Y51.3532 
G01 X-50.0505 Y51.3417 
G01 X-50.0717 Y51.3205 
G01 X-50.0832 Y51.2928 
G01 X-50.0832 Y50.6408 
G01 X-52.5256 Y48.1984 
G01 X-52.5181 Y48.2081 
G01 X-50.1781 Y50.5482 
G01 X-50.1405 Y50.5858 
G01 X-50.1038 Y50.6493 
G01 X-50.0848 Y50.7202 
G01 X-50.0848 Y51.3097 
G01 X-50.0543 Y51.3401 
G01 X-50.0267 Y51.3880 
G01 X-50.0177 Y51.4037 
G01 X-50.0086 Y51.4374 
G01 X-49.9987 Y51.4745 
G01 X-49.9987 Y51.5479 
G01 X-50.0177 Y51.6187 
G01 X-50.0448 Y51.6657 
G01 X-50.0543 Y51.6823 
G01 X-50.1062 Y51.7341 
G01 X-50.1541 Y51.7618 
G01 X-50.1697 Y51.7708 
G01 X-50.2034 Y51.7798 
G01 X-50.2406 Y51.7898 
G01 X-50.6052 Y51.7898 
G01 X-50.6761 Y51.7708 
G01 X-50.7396 Y51.7341 
G01 X-53.2239 Y49.2498 
G01 X-54.4152 Y49.2498 
G01 X-54.4861 Y49.2308 
G01 X-54.5496 Y49.1941 
G01 X-55.2326 Y48.5112 
G01 X-55.2423 Y48.5037 
G01 X-54.4946 Y49.2514 
G01 X-53.3033 Y49.2514 
G01 X-53.2325 Y49.2704 
G01 X-53.1689 Y49.3071 
G01 X-50.6846 Y51.7914 
G01 X-44.4133 Y51.7914 
G01 X-44.3425 Y51.8104 
G01 X-44.2789 Y51.8471 
G01 X-43.0089 Y53.1171 
G01 X-42.9571 Y53.1689 
G01 X-42.9204 Y53.2325 
G01 X-42.9014 Y53.3033 
G01 X-42.9014 Y57.0346 
G01 X-40.5246 Y59.4114 
G01 X-30.5954 Y59.4114 
G01 X-29.4886 Y58.3046 
G01 X-29.4886 Y55.5379 
G01 X-29.4913 Y55.5373 
G01 X-29.6668 Y55.4646 
G01 X-29.8248 Y55.3591 
G01 X-29.9591 Y55.2248 
G01 X-30.0646 Y55.0668 
G01 X-30.1373 Y54.8913 
G01 X-30.1744 Y54.7050 
G01 X-30.1744 Y54.5150 
G01 X-30.1373 Y54.3287 
G01 X-30.0646 Y54.1532 
G01 X-29.9591 Y53.9952 
G01 X-29.8248 Y53.8609 
G01 X-29.6668 Y53.7554 
G01 X-29.4913 Y53.6827 
G01 X-29.3050 Y53.6456 
G01 X-29.1150 Y53.6456 
G01 X-28.9287 Y53.6827 
G01 X-28.7532 Y53.7554 
G01 X-28.5952 Y53.8609 
G01 X-28.4609 Y53.9952 
G01 X-28.3554 Y54.1532 
G01 X-28.2827 Y54.3287 
G01 X-28.2456 Y54.5150 
G01 X-28.2456 Y54.7050 
G01 X-28.2827 Y54.8913 
G01 X-28.3554 Y55.0668 
G01 X-28.4609 Y55.2248 
G01 X-28.5952 Y55.3591 
G01 X-28.7530 Y55.4645 
G01 X-28.7409 Y55.4613 
G01 X-28.6628 Y55.4289 
G01 X-28.3911 Y55.1572 
G01 X-28.2447 Y54.8039 
G01 X-28.2328 Y54.7730 
G01 X-28.2307 Y54.7700 
G01 X-28.2293 Y54.7666 
G01 X-28.2092 Y54.7404 
G01 X-28.1897 Y54.7136 
G01 X-28.1869 Y54.7113 
G01 X-28.1846 Y54.7084 
G01 X-28.1584 Y54.6883 
G01 X-28.1327 Y54.6675 
G01 X-28.1293 Y54.6660 
G01 X-28.1264 Y54.6637 
G01 X-28.0959 Y54.6511 
G01 X-28.0657 Y54.6377 
G01 X-28.0620 Y54.6371 
G01 X-28.0586 Y54.6357 
G01 X-28.0259 Y54.6314 
G01 X-27.9932 Y54.6262 
G01 X-27.9896 Y54.6266 
G01 X-27.9859 Y54.6261 
G01 X-27.9532 Y54.6304 
G01 X-27.9203 Y54.6339 
G01 X-27.9168 Y54.6352 
G01 X-27.9132 Y54.6357 
G01 X-27.8827 Y54.6483 
G01 X-27.8518 Y54.6602 
G01 X-27.8488 Y54.6623 
G01 X-27.8454 Y54.6637 
G01 X-27.8192 Y54.6838 
G01 X-27.7924 Y54.7033 
G01 X-27.7901 Y54.7062 
G01 X-27.7872 Y54.7084 
G01 X-27.7671 Y54.7346 
G01 X-27.7463 Y54.7603 
G01 X-27.7448 Y54.7637 
G01 X-27.7426 Y54.7666 
G01 X-27.7299 Y54.7971 
G01 X-27.7165 Y54.8273 
G01 X-27.7159 Y54.8310 
G01 X-27.7145 Y54.8344 
G01 X-27.7110 Y54.8610 
G01 X-27.6594 Y55.0198 
G01 X-27.5831 Y55.1695 
G01 X-27.4843 Y55.3055 
G01 X-27.3655 Y55.4243 
G01 X-27.2295 Y55.5231 
G01 X-27.0798 Y55.5994 
G01 X-26.9994 Y55.6255 
G01 X-26.9994 Y55.5174 
G01 X-27.1268 Y55.4646 
G01 X-27.2848 Y55.3591 
G01 X-27.4191 Y55.2248 
G01 X-27.5246 Y55.0668 
G01 X-27.5973 Y54.8913 
G01 X-27.6344 Y54.7050 
G01 X-27.6344 Y54.5150 
G01 X-27.5973 Y54.3287 
G01 X-27.5246 Y54.1532 
G01 X-27.4191 Y53.9952 
G01 X-27.2848 Y53.8609 
G01 X-27.1268 Y53.7554 
G01 X-26.9513 Y53.6827 
G01 X-26.7650 Y53.6456 
G01 X-26.5750 Y53.6456 
G01 X-26.3887 Y53.6827 
G01 X-26.2132 Y53.7554 
G01 X-26.0552 Y53.8609 
G01 X-25.9209 Y53.9952 
G01 X-25.8154 Y54.1532 
G01 X-25.7427 Y54.3287 
G01 X-25.7056 Y54.5150 
G01 X-25.7056 Y54.7050 
G01 X-25.7427 Y54.8913 
G01 X-25.8154 Y55.0668 
G01 X-25.9209 Y55.2248 
G01 X-26.0552 Y55.3591 
G01 X-26.2132 Y55.4646 
G01 X-26.3406 Y55.5174 
G01 X-26.3406 Y55.6255 
G01 X-26.2602 Y55.5994 
G01 X-26.1105 Y55.5231 
G01 X-25.9745 Y55.4243 
G01 X-25.8557 Y55.3055 
G01 X-25.7569 Y55.1695 
G01 X-25.6806 Y55.0198 
G01 X-25.6290 Y54.8610 
G01 X-25.6255 Y54.8344 
G01 X-25.6241 Y54.8310 
G01 X-25.6235 Y54.8273 
G01 X-25.6101 Y54.7971 
G01 X-25.5974 Y54.7666 
G01 X-25.5952 Y54.7637 
G01 X-25.5937 Y54.7603 
G01 X-25.5729 Y54.7346 
G01 X-25.5528 Y54.7084 
G01 X-25.5499 Y54.7062 
G01 X-25.5475 Y54.7033 
G01 X-25.5208 Y54.6838 
G01 X-25.4946 Y54.6637 
G01 X-25.4912 Y54.6623 
G01 X-25.4882 Y54.6602 
G01 X-25.4573 Y54.6483 
G01 X-25.4268 Y54.6357 
G01 X-25.4232 Y54.6352 
G01 X-25.4197 Y54.6339 
G01 X-25.3868 Y54.6304 
G01 X-25.3541 Y54.6261 
G01 X-25.3504 Y54.6266 
G01 X-25.3468 Y54.6262 
G01 X-25.3141 Y54.6314 
G01 X-25.2813 Y54.6357 
G01 X-25.2780 Y54.6371 
G01 X-25.2743 Y54.6377 
G01 X-25.2441 Y54.6511 
G01 X-25.2136 Y54.6637 
G01 X-25.2107 Y54.6660 
G01 X-25.2073 Y54.6675 
G01 X-25.1816 Y54.6883 
G01 X-25.1554 Y54.7084 
G01 X-25.1531 Y54.7113 
G01 X-25.1503 Y54.7136 
G01 X-25.1308 Y54.7404 
G01 X-25.1107 Y54.7666 
G01 X-25.1093 Y54.7700 
G01 X-25.1072 Y54.7730 
G01 X-25.0953 Y54.8039 
G01 X-24.9489 Y55.1572 
G01 X-24.6772 Y55.4289 
G01 X-24.3222 Y55.5760 
G01 X-23.9378 Y55.5760 
G01 X-23.5828 Y55.4289 
G01 X-23.3111 Y55.1572 
G01 X-23.1640 Y54.8021 
G01 X-23.1640 Y54.4178 
G01 X-23.2910 Y54.1112 
G01 X-23.3002 Y54.0952 
G01 X-23.3050 Y54.0774 
G01 X-23.3120 Y54.0604 
G01 X-23.3144 Y54.0422 
G01 X-23.3192 Y54.0244 
G01 X-23.3192 Y54.0059 
G01 X-23.3216 Y53.9877 
G01 X-23.3192 Y53.9694 
G01 X-23.3192 Y53.9510 
G01 X-23.3144 Y53.9332 
G01 X-23.3120 Y53.9150 
G01 X-23.3050 Y53.8980 
G01 X-23.3002 Y53.8802 
G01 X-23.2910 Y53.8642 
G01 X-23.2840 Y53.8472 
G01 X-23.2728 Y53.8326 
G01 X-23.2636 Y53.8166 
G01 X-23.2505 Y53.8036 
G01 X-23.2393 Y53.7890 
G01 X-23.2247 Y53.7778 
G01 X-23.2117 Y53.7648 
G01 X-23.1957 Y53.7555 
G01 X-23.1811 Y53.7443 
G01 X-23.1641 Y53.7373 
G01 X-23.1482 Y53.7281 
G01 X-23.1303 Y53.7233 
G01 X-23.1134 Y53.7163 
G01 X-23.0951 Y53.7139 
G01 X-23.0773 Y53.7091 
G01 X-23.0589 Y53.7091 
G01 X-23.0406 Y53.7067 
G01 X-23.0224 Y53.7091 
G01 X-22.6976 Y53.7091 
G01 X-22.6794 Y53.7067 
G01 X-22.6611 Y53.7091 
G01 X-22.6427 Y53.7091 
G01 X-22.6249 Y53.7139 
G01 X-22.6066 Y53.7163 
G01 X-22.5896 Y53.7233 
G01 X-22.5718 Y53.7281 
G01 X-22.5559 Y53.7373 
G01 X-22.5389 Y53.7443 
G01 X-22.5243 Y53.7555 
G01 X-22.5083 Y53.7648 
G01 X-22.4953 Y53.7778 
G01 X-22.4807 Y53.7890 
G01 X-22.4695 Y53.8036 
G01 X-22.4564 Y53.8166 
G01 X-22.4472 Y53.8326 
G01 X-22.4360 Y53.8472 
G01 X-22.4290 Y53.8642 
G01 X-22.4198 Y53.8802 
G01 X-22.4150 Y53.8980 
G01 X-22.4079 Y53.9150 
G01 X-22.4055 Y53.9332 
G01 X-22.4008 Y53.9510 
G01 X-22.4008 Y53.9694 
G01 X-22.3984 Y53.9877 
G01 X-22.4008 Y54.0059 
G01 X-22.4008 Y54.0244 
G01 X-22.4055 Y54.0422 
G01 X-22.4079 Y54.0604 
G01 X-22.4150 Y54.0774 
G01 X-22.4198 Y54.0952 
G01 X-22.4290 Y54.1112 
G01 X-22.5560 Y54.4178 
G01 X-22.5560 Y54.8021 
G01 X-22.4089 Y55.1572 
G01 X-22.1372 Y55.4289 
G01 X-21.7822 Y55.5760 
G01 X-21.3978 Y55.5760 
G01 X-21.0428 Y55.4289 
G01 X-20.7711 Y55.1572 
G01 X-20.6240 Y54.8021 
G01 X-20.6240 Y54.4178 
G01 X-20.7510 Y54.1112 
G01 X-20.7602 Y54.0952 
G01 X-20.7650 Y54.0774 
G01 X-20.7720 Y54.0604 
G01 X-20.7745 Y54.0422 
G01 X-20.7792 Y54.0244 
G01 X-20.7792 Y54.0059 
G01 X-20.7816 Y53.9877 
G01 X-20.7792 Y53.9694 
G01 X-20.7792 Y53.9510 
G01 X-20.7745 Y53.9332 
G01 X-20.7720 Y53.9150 
G01 X-20.7650 Y53.8980 
G01 X-20.7602 Y53.8802 
G01 X-20.7510 Y53.8642 
G01 X-20.7440 Y53.8472 
G01 X-20.7328 Y53.8326 
G01 X-20.7236 Y53.8166 
G01 X-20.7105 Y53.8036 
G01 X-20.6993 Y53.7890 
G01 X-20.6847 Y53.7778 
G01 X-20.6717 Y53.7648 
G01 X-20.6557 Y53.7555 
G01 X-20.6411 Y53.7443 
G01 X-20.6241 Y53.7373 
G01 X-20.6082 Y53.7281 
G01 X-20.5904 Y53.7233 
G01 X-20.5734 Y53.7163 
G01 X-20.5551 Y53.7139 
G01 X-20.5373 Y53.7091 
G01 X-20.5189 Y53.7091 
G01 X-20.5006 Y53.7067 
G01 X-20.4824 Y53.7091 
G01 X-20.1576 Y53.7091 
G01 X-20.1394 Y53.7067 
G01 X-20.1211 Y53.7091 
G01 X-20.1027 Y53.7091 
G01 X-20.0849 Y53.7139 
G01 X-20.0666 Y53.7163 
G01 X-20.0496 Y53.7233 
G01 X-20.0318 Y53.7281 
G01 X-20.0159 Y53.7373 
G01 X-19.9989 Y53.7443 
G01 X-19.9843 Y53.7555 
G01 X-19.9683 Y53.7648 
G01 X-19.9553 Y53.7778 
G01 X-19.9407 Y53.7890 
G01 X-19.9295 Y53.8036 
G01 X-19.9164 Y53.8166 
G01 X-19.9072 Y53.8326 
G01 X-19.8960 Y53.8472 
G01 X-19.8890 Y53.8642 
G01 X-19.8798 Y53.8802 
G01 X-19.8750 Y53.8980 
G01 X-19.8679 Y53.9150 
G01 X-19.8655 Y53.9332 
G01 X-19.8608 Y53.9510 
G01 X-19.8608 Y53.9694 
G01 X-19.8584 Y53.9877 
G01 X-19.8608 Y54.0059 
G01 X-19.8608 Y54.0244 
G01 X-19.8655 Y54.0422 
G01 X-19.8679 Y54.0604 
G01 X-19.8750 Y54.0774 
G01 X-19.8798 Y54.0952 
G01 X-19.8890 Y54.1112 
G01 X-20.0160 Y54.4178 
G01 X-20.0160 Y54.8021 
G01 X-19.8689 Y55.1572 
G01 X-19.5972 Y55.4289 
G01 X-19.2421 Y55.5760 
G01 X-18.8578 Y55.5760 
G01 X-18.5028 Y55.4289 
G01 X-18.2311 Y55.1572 
G01 X-18.1408 Y54.9392 
G01 X-18.1127 Y54.8714 
G01 X-18.0778 Y54.8260 
G01 X-18.0680 Y54.8132 
G01 X-18.0537 Y54.8022 
G01 X-18.0099 Y54.7686 
G01 X-17.9421 Y54.7405 
G01 X-17.8755 Y54.7318 
G01 X-17.8694 Y54.7309 
G01 X-17.7966 Y54.7405 
G01 X-17.7288 Y54.7686 
G01 X-17.6834 Y54.8035 
G01 X-17.6706 Y54.8132 
G01 X-17.6596 Y54.8276 
G01 X-17.6260 Y54.8714 
G01 X-17.5979 Y54.9392 
G01 X-17.4689 Y55.2507 
G01 X-17.1507 Y55.5689 
G01 X-16.7350 Y55.7411 
G01 X-16.2850 Y55.7411 
G01 X-16.0112 Y55.6277 
G01 X-15.9952 Y55.6185 
G01 X-15.9774 Y55.6137 
G01 X-15.9604 Y55.6067 
G01 X-15.9422 Y55.6042 
G01 X-15.9244 Y55.5995 
G01 X-15.9059 Y55.5995 
G01 X-15.8877 Y55.5971 
G01 X-15.8694 Y55.5995 
G01 X-15.8510 Y55.5995 
G01 X-15.8332 Y55.6042 
G01 X-15.8150 Y55.6067 
G01 X-15.7980 Y55.6137 
G01 X-15.7802 Y55.6185 
G01 X-15.7642 Y55.6277 
G01 X-15.7472 Y55.6347 
G01 X-15.7326 Y55.6459 
G01 X-15.7166 Y55.6551 
G01 X-15.7036 Y55.6682 
G01 X-15.6890 Y55.6794 
G01 X-15.6778 Y55.6940 
G01 X-15.6648 Y55.7070 
G01 X-15.6555 Y55.7230 
G01 X-15.6443 Y55.7376 
G01 X-15.6373 Y55.7546 
G01 X-15.6281 Y55.7705 
G01 X-15.6233 Y55.7883 
G01 X-15.6163 Y55.8053 
G01 X-15.6139 Y55.8236 
G01 X-15.6091 Y55.8414 
G01 X-15.6091 Y55.8598 
G01 X-15.6067 Y55.8781 
G01 X-15.6091 Y55.8963 
G01 X-15.6091 Y58.6651 
G01 X-15.6144 Y58.6848 
G01 X-15.6281 Y58.7359 
G01 X-15.6648 Y58.7994 
G01 X-15.7166 Y58.8513 
G01 X-15.7802 Y58.8880 
G01 X-15.8510 Y58.9070 
G01 X-15.9244 Y58.9070 
G01 X-15.9442 Y58.9017 
G01 X-15.9952 Y58.8880 
G01 X-16.0588 Y58.8513 
G01 X-16.1106 Y58.7994 
G01 X-16.2115 Y58.6986 
G01 X-17.0117 Y58.6986 
G01 X-17.5776 Y59.2645 
G01 X-17.5776 Y60.0647 
G01 X-17.0117 Y60.6306 
G01 X-16.2115 Y60.6306 
G01 X-16.1106 Y60.5298 
G01 X-16.0588 Y60.4779 
G01 X-15.9952 Y60.4412 
G01 X-15.9426 Y60.4271 
G01 X-15.9244 Y60.4222 
G01 X-15.8510 Y60.4222 
G01 X-15.7802 Y60.4412 
G01 X-15.7166 Y60.4779 
G01 X-15.6648 Y60.5298 
G01 X-15.6281 Y60.5933 
G01 X-15.6140 Y60.6460 
G01 X-15.6091 Y60.6641 
G01 X-15.6091 Y61.2051 
G01 X-15.6144 Y61.2248 
G01 X-15.6281 Y61.2759 
G01 X-15.6648 Y61.3394 
G01 X-15.7166 Y61.3913 
G01 X-15.7802 Y61.4280 
G01 X-15.8510 Y61.4470 
G01 X-15.9244 Y61.4470 
G01 X-15.9442 Y61.4417 
G01 X-15.9952 Y61.4280 
G01 X-16.0588 Y61.3913 
G01 X-16.1106 Y61.3394 
G01 X-16.2115 Y61.2386 
G01 X-17.0117 Y61.2386 
G01 X-17.5776 Y61.8045 
G01 X-17.5776 Y62.6047 
G01 X-17.0117 Y63.1706 
G01 X-16.2115 Y63.1706 
G01 X-16.1106 Y63.0698 
G01 X-16.0588 Y63.0179 
G01 X-15.9952 Y62.9812 
G01 X-15.9426 Y62.9671 
G01 X-15.9244 Y62.9622 
G01 X-15.8510 Y62.9622 
G01 X-15.7802 Y62.9812 
G01 X-15.7166 Y63.0179 
G01 X-15.6648 Y63.0698 
G01 X-15.6281 Y63.1333 
G01 X-15.6140 Y63.1860 
G01 X-15.6091 Y63.2041 
G01 X-15.6091 Y63.7451 
G01 X-15.6144 Y63.7648 
G01 X-15.6281 Y63.8159 
G01 X-15.6648 Y63.8794 
G01 X-15.7166 Y63.9313 
G01 X-15.7802 Y63.9680 
G01 X-15.8510 Y63.9870 
G01 X-15.9244 Y63.9870 
G01 X-15.9442 Y63.9817 
G01 X-15.9952 Y63.9680 
G01 X-16.0588 Y63.9313 
G01 X-16.1106 Y63.8794 
G01 X-16.2115 Y63.7786 
G01 X-17.0117 Y63.7786 
G01 X-17.5776 Y64.3445 
G01 X-17.5776 Y65.1447 
G01 X-17.0117 Y65.7106 
G01 X-16.2115 Y65.7106 
G01 X-16.1106 Y65.6098 
G01 X-16.0588 Y65.5579 
G01 X-15.9952 Y65.5212 
G01 X-15.9426 Y65.5071 
G01 X-15.9244 Y65.5022 
G01 X-15.8510 Y65.5022 
G01 X-15.7802 Y65.5212 
G01 X-15.7166 Y65.5579 
G01 X-15.6648 Y65.6098 
G01 X-15.6281 Y65.6733 
G01 X-15.6140 Y65.7260 
G01 X-15.6091 Y65.7441 
G01 X-15.6091 Y68.5637 
G01 X-15.6067 Y68.5819 
G01 X-15.6091 Y68.6002 
G01 X-15.6091 Y68.6186 
G01 X-15.6139 Y68.6364 
G01 X-15.6163 Y68.6546 
G01 X-15.6233 Y68.6716 
G01 X-15.6281 Y68.6895 
G01 X-15.6373 Y68.7054 
G01 X-15.6443 Y68.7224 
G01 X-15.6555 Y68.7370 
G01 X-15.6648 Y68.7530 
G01 X-15.6778 Y68.7660 
G01 X-15.6890 Y68.7806 
G01 X-15.7036 Y68.7918 
G01 X-15.7166 Y68.8049 
G01 X-15.7326 Y68.8141 
G01 X-15.7472 Y68.8253 
G01 X-15.7642 Y68.8323 
G01 X-15.7802 Y68.8415 
G01 X-15.7980 Y68.8463 
G01 X-15.8150 Y68.8533 
G01 X-15.8332 Y68.8557 
G01 X-15.8510 Y68.8605 
G01 X-15.8694 Y68.8605 
G01 X-15.8877 Y68.8629 
G01 X-15.9060 Y68.8605 
G01 X-15.9244 Y68.8605 
G01 X-15.9422 Y68.8557 
G01 X-15.9604 Y68.8533 
G01 X-15.9774 Y68.8463 
G01 X-15.9952 Y68.8415 
G01 X-16.0112 Y68.8323 
G01 X-16.2850 Y68.7189 
G01 X-16.7350 Y68.7189 
G01 X-17.1507 Y68.8911 
G01 X-17.4689 Y69.2093 
G01 X-17.5979 Y69.5208 
G01 X-17.6260 Y69.5885 
G01 X-17.6609 Y69.6340 
G01 X-17.6706 Y69.6467 
G01 X-17.6850 Y69.6578 
G01 X-17.7288 Y69.6914 
G01 X-17.7966 Y69.7195 
G01 X-17.8632 Y69.7282 
G01 X-17.8693 Y69.7290 
G01 X-17.9421 Y69.7195 
G01 X-18.0099 Y69.6914 
G01 X-18.0553 Y69.6565 
G01 X-18.0680 Y69.6467 
G01 X-18.0791 Y69.6324 
G01 X-18.1127 Y69.5885 
G01 X-18.1408 Y69.5208 
G01 X-18.2311 Y69.3028 
G01 X-18.5028 Y69.0311 
G01 X-18.8578 Y68.8840 
G01 X-19.2421 Y68.8840 
G01 X-19.5972 Y69.0311 
G01 X-19.8689 Y69.3028 
G01 X-20.0160 Y69.6578 
G01 X-20.0160 Y70.0422 
G01 X-19.8890 Y70.3488 
G01 X-19.8798 Y70.3648 
G01 X-19.8750 Y70.3826 
G01 X-19.8679 Y70.3996 
G01 X-19.8655 Y70.4178 
G01 X-19.8608 Y70.4356 
G01 X-19.8608 Y70.4540 
G01 X-19.8584 Y70.4723 
G01 X-19.8608 Y70.4905 
G01 X-19.8608 Y70.5090 
G01 X-19.8655 Y70.5268 
G01 X-19.8679 Y70.5450 
G01 X-19.8750 Y70.5620 
G01 X-19.8798 Y70.5798 
G01 X-19.8890 Y70.5958 
G01 X-19.8960 Y70.6128 
G01 X-19.9072 Y70.6274 
G01 X-19.9164 Y70.6434 
G01 X-19.9295 Y70.6564 
G01 X-19.9407 Y70.6710 
G01 X-19.9553 Y70.6822 
G01 X-19.9683 Y70.6952 
G01 X-19.9843 Y70.7044 
G01 X-19.9989 Y70.7157 
G01 X-20.0159 Y70.7227 
G01 X-20.0318 Y70.7319 
G01 X-20.0496 Y70.7367 
G01 X-20.0666 Y70.7437 
G01 X-20.0849 Y70.7461 
G01 X-20.1027 Y70.7509 
G01 X-20.1211 Y70.7509 
G01 X-20.1394 Y70.7533 
G01 X-20.1576 Y70.7509 
G01 X-20.4824 Y70.7509 
G01 X-20.5006 Y70.7533 
G01 X-20.5189 Y70.7509 
G01 X-20.5373 Y70.7509 
G01 X-20.5551 Y70.7461 
G01 X-20.5734 Y70.7437 
G01 X-20.5904 Y70.7367 
G01 X-20.6082 Y70.7319 
G01 X-20.6241 Y70.7227 
G01 X-20.6411 Y70.7157 
G01 X-20.6557 Y70.7044 
G01 X-20.6717 Y70.6952 
G01 X-20.6847 Y70.6822 
G01 X-20.6993 Y70.6710 
G01 X-20.7105 Y70.6564 
G01 X-20.7236 Y70.6434 
G01 X-20.7328 Y70.6274 
G01 X-20.7440 Y70.6128 
G01 X-20.7510 Y70.5958 
G01 X-20.7602 Y70.5798 
G01 X-20.7650 Y70.5620 
G01 X-20.7720 Y70.5450 
G01 X-20.7745 Y70.5268 
G01 X-20.7792 Y70.5090 
G01 X-20.7792 Y70.4906 
G01 X-20.7816 Y70.4723 
G01 X-20.7792 Y70.4540 
G01 X-20.7792 Y70.4356 
G01 X-20.7745 Y70.4178 
G01 X-20.7720 Y70.3996 
G01 X-20.7650 Y70.3826 
G01 X-20.7602 Y70.3648 
G01 X-20.7510 Y70.3488 
G01 X-20.6240 Y70.0421 
G01 X-20.6240 Y69.6578 
G01 X-20.7711 Y69.3028 
G01 X-21.0428 Y69.0311 
G01 X-21.3978 Y68.8840 
G01 X-21.7822 Y68.8840 
G01 X-22.1372 Y69.0311 
G01 X-22.4089 Y69.3028 
G01 X-22.5560 Y69.6578 
G01 X-22.5560 Y70.0422 
G01 X-22.4290 Y70.3488 
G01 X-22.4198 Y70.3648 
G01 X-22.4150 Y70.3826 
G01 X-22.4079 Y70.3996 
G01 X-22.4055 Y70.4178 
G01 X-22.4008 Y70.4356 
G01 X-22.4008 Y70.4540 
G01 X-22.3984 Y70.4723 
G01 X-22.4008 Y70.4905 
G01 X-22.4008 Y70.5090 
G01 X-22.4055 Y70.5268 
G01 X-22.4079 Y70.5450 
G01 X-22.4150 Y70.5620 
G01 X-22.4198 Y70.5798 
G01 X-22.4290 Y70.5958 
G01 X-22.4360 Y70.6128 
G01 X-22.4472 Y70.6274 
G01 X-22.4564 Y70.6434 
G01 X-22.4695 Y70.6564 
G01 X-22.4807 Y70.6710 
G01 X-22.4953 Y70.6822 
G01 X-22.5083 Y70.6952 
G01 X-22.5243 Y70.7044 
G01 X-22.5389 Y70.7157 
G01 X-22.5559 Y70.7227 
G01 X-22.5718 Y70.7319 
G01 X-22.5896 Y70.7367 
G01 X-22.6066 Y70.7437 
G01 X-22.6249 Y70.7461 
G01 X-22.6427 Y70.7509 
G01 X-22.6611 Y70.7509 
G01 X-22.6794 Y70.7533 
G01 X-22.6976 Y70.7509 
G01 X-23.0224 Y70.7509 
G01 X-23.0406 Y70.7533 
G01 X-23.0589 Y70.7509 
G01 X-23.0773 Y70.7509 
G01 X-23.0951 Y70.7461 
G01 X-23.1134 Y70.7437 
G01 X-23.1303 Y70.7367 
G01 X-23.1482 Y70.7319 
G01 X-23.1641 Y70.7227 
G01 X-23.1811 Y70.7157 
G01 X-23.1957 Y70.7044 
G01 X-23.2117 Y70.6952 
G01 X-23.2247 Y70.6822 
G01 X-23.2393 Y70.6710 
G01 X-23.2505 Y70.6564 
G01 X-23.2636 Y70.6434 
G01 X-23.2728 Y70.6274 
G01 X-23.2840 Y70.6128 
G01 X-23.2910 Y70.5958 
G01 X-23.3002 Y70.5798 
G01 X-23.3050 Y70.5620 
G01 X-23.3120 Y70.5450 
G01 X-23.3144 Y70.5268 
G01 X-23.3192 Y70.5090 
G01 X-23.3192 Y70.4906 
G01 X-23.3216 Y70.4723 
G01 X-23.3192 Y70.4540 
G01 X-23.3192 Y70.4356 
G01 X-23.3144 Y70.4178 
G01 X-23.3120 Y70.3996 
G01 X-23.3050 Y70.3826 
G01 X-23.3002 Y70.3648 
G01 X-23.2910 Y70.3488 
G01 X-23.1640 Y70.0422 
G01 X-23.1640 Y69.6578 
G01 X-23.3111 Y69.3028 
G01 X-23.5828 Y69.0311 
G01 X-23.9378 Y68.8840 
G01 X-24.3222 Y68.8840 
G01 X-24.6772 Y69.0311 
G01 X-24.9489 Y69.3028 
G01 X-25.0960 Y69.6578 
G01 X-25.0960 Y70.0422 
G01 X-24.9690 Y70.3488 
G01 X-24.9598 Y70.3648 
G01 X-24.9550 Y70.3826 
G01 X-24.9479 Y70.3996 
G01 X-24.9455 Y70.4178 
G01 X-24.9408 Y70.4356 
G01 X-24.9408 Y70.4540 
G01 X-24.9384 Y70.4723 
G01 X-24.9408 Y70.4905 
G01 X-24.9408 Y70.5090 
G01 X-24.9455 Y70.5268 
G01 X-24.9479 Y70.5450 
G01 X-24.9550 Y70.5620 
G01 X-24.9598 Y70.5798 
G01 X-24.9690 Y70.5958 
G01 X-24.9760 Y70.6128 
G01 X-24.9872 Y70.6274 
G01 X-24.9964 Y70.6434 
G01 X-25.0095 Y70.6564 
G01 X-25.0207 Y70.6710 
G01 X-25.0353 Y70.6822 
G01 X-25.0483 Y70.6952 
G01 X-25.0643 Y70.7044 
G01 X-25.0789 Y70.7157 
G01 X-25.0959 Y70.7227 
G01 X-25.1118 Y70.7319 
G01 X-25.1296 Y70.7367 
G01 X-25.1466 Y70.7437 
G01 X-25.1649 Y70.7461 
G01 X-25.1827 Y70.7509 
G01 X-25.2011 Y70.7509 
G01 X-25.2194 Y70.7533 
G01 X-25.2376 Y70.7509 
G01 X-25.5624 Y70.7509 
G01 X-25.5806 Y70.7533 
G01 X-25.5989 Y70.7509 
G01 X-25.6173 Y70.7509 
G01 X-25.6351 Y70.7461 
G01 X-25.6533 Y70.7437 
G01 X-25.6703 Y70.7367 
G01 X-25.6882 Y70.7319 
G01 X-25.7041 Y70.7227 
G01 X-25.7211 Y70.7157 
G01 X-25.7357 Y70.7044 
G01 X-25.7517 Y70.6952 
G01 X-25.7647 Y70.6822 
G01 X-25.7793 Y70.6710 
G01 X-25.7905 Y70.6564 
G01 X-25.8036 Y70.6434 
G01 X-25.8128 Y70.6274 
G01 X-25.8240 Y70.6128 
G01 X-25.8310 Y70.5958 
G01 X-25.8402 Y70.5798 
G01 X-25.8450 Y70.5620 
G01 X-25.8520 Y70.5450 
G01 X-25.8544 Y70.5268 
G01 X-25.8592 Y70.5090 
G01 X-25.8592 Y70.4906 
G01 X-25.8616 Y70.4723 
G01 X-25.8592 Y70.4540 
G01 X-25.8592 Y70.4356 
G01 X-25.8544 Y70.4178 
G01 X-25.8520 Y70.3996 
G01 X-25.8450 Y70.3826 
G01 X-25.8402 Y70.3648 
G01 X-25.8310 Y70.3488 
G01 X-25.7040 Y70.0422 
G01 X-25.7040 Y69.6578 
G01 X-25.8511 Y69.3028 
G01 X-26.1228 Y69.0311 
G01 X-26.4778 Y68.8840 
G01 X-26.8621 Y68.8840 
G01 X-27.2172 Y69.0311 
G01 X-27.4889 Y69.3028 
G01 X-27.6360 Y69.6578 
G01 X-27.6360 Y70.0422 
G01 X-27.5090 Y70.3488 
G01 X-27.4998 Y70.3648 
G01 X-27.4950 Y70.3826 
G01 X-27.4879 Y70.3996 
G01 X-27.4855 Y70.4178 
G01 X-27.4808 Y70.4356 
G01 X-27.4808 Y70.4540 
G01 X-27.4784 Y70.4723 
G01 X-27.4808 Y70.4905 
G01 X-27.4808 Y70.5090 
G01 X-27.4855 Y70.5268 
G01 X-27.4879 Y70.5450 
G01 X-27.4950 Y70.5620 
G01 X-27.4998 Y70.5798 
G01 X-27.5090 Y70.5958 
G01 X-27.5160 Y70.6128 
G01 X-27.5272 Y70.6274 
G01 X-27.5364 Y70.6434 
G01 X-27.5495 Y70.6564 
G01 X-27.5607 Y70.6710 
G01 X-27.5753 Y70.6822 
G01 X-27.5883 Y70.6952 
G01 X-27.6043 Y70.7044 
G01 X-27.6189 Y70.7157 
G01 X-27.6359 Y70.7227 
G01 X-27.6518 Y70.7319 
G01 X-27.6696 Y70.7367 
G01 X-27.6866 Y70.7437 
G01 X-27.7049 Y70.7461 
G01 X-27.7227 Y70.7509 
G01 X-27.7411 Y70.7509 
G01 X-27.7594 Y70.7533 
G01 X-27.7776 Y70.7509 
G01 X-28.1024 Y70.7509 
G01 X-28.1206 Y70.7533 
G01 X-28.1389 Y70.7509 
G01 X-28.1573 Y70.7509 
G01 X-28.1751 Y70.7461 
G01 X-28.1933 Y70.7437 
G01 X-28.2103 Y70.7367 
G01 X-28.2282 Y70.7319 
G01 X-28.2441 Y70.7227 
G01 X-28.2611 Y70.7157 
G01 X-28.2757 Y70.7044 
G01 X-28.2917 Y70.6952 
G01 X-28.3047 Y70.6822 
G01 X-28.3193 Y70.6710 
G01 X-28.3305 Y70.6564 
G01 X-28.3436 Y70.6434 
G01 X-28.3528 Y70.6274 
G01 X-28.3640 Y70.6128 
G01 X-28.3710 Y70.5958 
G01 X-28.3802 Y70.5798 
G01 X-28.3850 Y70.5620 
G01 X-28.3920 Y70.5450 
G01 X-28.3944 Y70.5268 
G01 X-28.3992 Y70.5090 
G01 X-28.3992 Y70.4906 
G01 X-28.4016 Y70.4723 
G01 X-28.3992 Y70.4540 
G01 X-28.3992 Y70.4356 
G01 X-28.3944 Y70.4178 
G01 X-28.3920 Y70.3996 
G01 X-28.3850 Y70.3826 
G01 X-28.3802 Y70.3648 
G01 X-28.3710 Y70.3488 
G01 X-28.2440 Y70.0421 
G01 X-28.2440 Y69.6578 
G01 X-28.3911 Y69.3028 
G01 X-28.6628 Y69.0311 
G01 X-29.0178 Y68.8840 
G01 X-29.4021 Y68.8840 
G01 X-29.7572 Y69.0311 
G01 X-30.0289 Y69.3028 
G01 X-30.1760 Y69.6578 
G01 X-30.1760 Y70.0422 
G01 X-30.0490 Y70.3488 
G01 X-30.0398 Y70.3648 
G01 X-30.0350 Y70.3826 
G01 X-30.0279 Y70.3996 
G01 X-30.0255 Y70.4178 
G01 X-30.0208 Y70.4356 
G01 X-30.0208 Y70.4540 
G01 X-30.0184 Y70.4723 
G01 X-30.0208 Y70.4905 
G01 X-30.0208 Y70.5090 
G01 X-30.0255 Y70.5268 
G01 X-30.0279 Y70.5450 
G01 X-30.0350 Y70.5620 
G01 X-30.0398 Y70.5798 
G01 X-30.0490 Y70.5958 
G01 X-30.0560 Y70.6128 
G01 X-30.0672 Y70.6274 
G01 X-30.0764 Y70.6434 
G01 X-30.0895 Y70.6564 
G01 X-30.1007 Y70.6710 
G01 X-30.1153 Y70.6822 
G01 X-30.1283 Y70.6952 
G01 X-30.1443 Y70.7044 
G01 X-30.1589 Y70.7157 
G01 X-30.1759 Y70.7227 
G01 X-30.1918 Y70.7319 
G01 X-30.2096 Y70.7367 
G01 X-30.2266 Y70.7437 
G01 X-30.2449 Y70.7461 
G01 X-30.2627 Y70.7509 
G01 X-30.2811 Y70.7509 
G01 X-30.2994 Y70.7533 
G01 X-30.3176 Y70.7509 
G01 X-30.6424 Y70.7509 
G01 X-30.6606 Y70.7533 
G01 X-30.6789 Y70.7509 
G01 X-30.6973 Y70.7509 
G01 X-30.7151 Y70.7461 
G01 X-30.7334 Y70.7437 
G01 X-30.7504 Y70.7367 
G01 X-30.7682 Y70.7319 
G01 X-30.7841 Y70.7227 
G01 X-30.8011 Y70.7157 
G01 X-30.8157 Y70.7044 
G01 X-30.8317 Y70.6952 
G01 X-30.8447 Y70.6822 
G01 X-30.8593 Y70.6710 
G01 X-30.8705 Y70.6564 
G01 X-30.8836 Y70.6434 
G01 X-30.8928 Y70.6274 
G01 X-30.9040 Y70.6128 
G01 X-30.9110 Y70.5958 
G01 X-30.9202 Y70.5798 
G01 X-30.9250 Y70.5620 
G01 X-30.9320 Y70.5450 
G01 X-30.9344 Y70.5268 
G01 X-30.9392 Y70.5090 
G01 X-30.9392 Y70.4906 
G01 X-30.9416 Y70.4723 
G01 X-30.9392 Y70.4540 
G01 X-30.9392 Y70.4356 
G01 X-30.9344 Y70.4178 
G01 X-30.9320 Y70.3996 
G01 X-30.9250 Y70.3826 
G01 X-30.9202 Y70.3648 
G01 X-30.9110 Y70.3488 
G01 X-30.7840 Y70.0422 
G01 X-30.7840 Y69.6578 
G01 X-30.9311 Y69.3028 
G01 X-31.2028 Y69.0311 
G01 X-31.5578 Y68.8840 
G01 X-31.9422 Y68.8840 
G01 X-32.2972 Y69.0311 
G01 X-32.5689 Y69.3028 
G01 X-32.7160 Y69.6578 
G01 X-32.7160 Y70.0422 
G01 X-32.5890 Y70.3488 
G01 X-32.5798 Y70.3648 
G01 X-32.5750 Y70.3826 
G01 X-32.5679 Y70.3996 
G01 X-32.5655 Y70.4178 
G01 X-32.5608 Y70.4356 
G01 X-32.5608 Y70.4540 
G01 X-32.5584 Y70.4723 
G01 X-32.5608 Y70.4905 
G01 X-32.5608 Y70.5090 
G01 X-32.5655 Y70.5268 
G01 X-32.5679 Y70.5450 
G01 X-32.5750 Y70.5620 
G01 X-32.5798 Y70.5798 
G01 X-32.5890 Y70.5958 
G01 X-32.5960 Y70.6128 
G01 X-32.6072 Y70.6274 
G01 X-32.6164 Y70.6434 
G01 X-32.6295 Y70.6564 
G01 X-32.6407 Y70.6710 
G01 X-32.6553 Y70.6822 
G01 X-32.6683 Y70.6952 
G01 X-32.6843 Y70.7044 
G01 X-32.6989 Y70.7157 
G01 X-32.7159 Y70.7227 
G01 X-32.7318 Y70.7319 
G01 X-32.7496 Y70.7367 
G01 X-32.7666 Y70.7437 
G01 X-32.7849 Y70.7461 
G01 X-32.8027 Y70.7509 
G01 X-32.8211 Y70.7509 
G01 X-32.8394 Y70.7533 
G01 X-32.8576 Y70.7509 
G01 X-33.1824 Y70.7509 
G01 X-33.2006 Y70.7533 
G01 X-33.2189 Y70.7509 
G01 X-33.2373 Y70.7509 
G01 X-33.2551 Y70.7461 
G01 X-33.2734 Y70.7437 
G01 X-33.2903 Y70.7367 
G01 X-33.3082 Y70.7319 
G01 X-33.3241 Y70.7227 
G01 X-33.3411 Y70.7157 
G01 X-33.3557 Y70.7044 
G01 X-33.3717 Y70.6952 
G01 X-33.3847 Y70.6822 
G01 X-33.3993 Y70.6710 
G01 X-33.4105 Y70.6564 
G01 X-33.4236 Y70.6434 
G01 X-33.4328 Y70.6274 
G01 X-33.4440 Y70.6128 
G01 X-33.4510 Y70.5958 
G01 X-33.4602 Y70.5798 
G01 X-33.4650 Y70.5620 
G01 X-33.4720 Y70.5450 
G01 X-33.4744 Y70.5268 
G01 X-33.4792 Y70.5090 
G01 X-33.4792 Y70.4906 
G01 X-33.4816 Y70.4723 
G01 X-33.4792 Y70.4540 
G01 X-33.4792 Y70.4356 
G01 X-33.4744 Y70.4178 
G01 X-33.4720 Y70.3996 
G01 X-33.4650 Y70.3826 
G01 X-33.4602 Y70.3648 
G01 X-33.4510 Y70.3488 
G01 X-33.3240 Y70.0422 
G01 X-33.3240 Y69.6578 
G01 X-33.4711 Y69.3028 
G01 X-33.7428 Y69.0311 
G01 X-34.0978 Y68.8840 
G01 X-34.4821 Y68.8840 
G01 X-34.8372 Y69.0311 
G01 X-35.1089 Y69.3028 
G01 X-35.2560 Y69.6578 
G01 X-35.2560 Y70.0422 
G01 X-35.1290 Y70.3488 
G01 X-35.1198 Y70.3648 
G01 X-35.1150 Y70.3826 
G01 X-35.1079 Y70.3996 
G01 X-35.1055 Y70.4178 
G01 X-35.1008 Y70.4356 
G01 X-35.1008 Y70.4540 
G01 X-35.0984 Y70.4723 
G01 X-35.1008 Y70.4905 
G01 X-35.1008 Y70.5090 
G01 X-35.1055 Y70.5268 
G01 X-35.1079 Y70.5450 
G01 X-35.1150 Y70.5620 
G01 X-35.1198 Y70.5798 
G01 X-35.1290 Y70.5958 
G01 X-35.1360 Y70.6128 
G01 X-35.1472 Y70.6274 
G01 X-35.1564 Y70.6434 
G01 X-35.1695 Y70.6564 
G01 X-35.1807 Y70.6710 
G01 X-35.1953 Y70.6822 
G01 X-35.2083 Y70.6952 
G01 X-35.2243 Y70.7044 
G01 X-35.2389 Y70.7157 
G01 X-35.2559 Y70.7227 
G01 X-35.2718 Y70.7319 
G01 X-35.2896 Y70.7367 
G01 X-35.3066 Y70.7437 
G01 X-35.3249 Y70.7461 
G01 X-35.3427 Y70.7509 
G01 X-35.3611 Y70.7509 
G01 X-35.3794 Y70.7533 
G01 X-35.3976 Y70.7509 
G01 X-35.7224 Y70.7509 
G01 X-35.7406 Y70.7533 
G01 X-35.7589 Y70.7509 
G01 X-35.7773 Y70.7509 
G01 X-35.7951 Y70.7461 
G01 X-35.8133 Y70.7437 
G01 X-35.8304 Y70.7367 
G01 X-35.8482 Y70.7319 
G01 X-35.8641 Y70.7227 
G01 X-35.8811 Y70.7157 
G01 X-35.8957 Y70.7044 
G01 X-35.9117 Y70.6952 
G01 X-35.9247 Y70.6822 
G01 X-35.9393 Y70.6710 
G01 X-35.9505 Y70.6564 
G01 X-35.9636 Y70.6434 
G01 X-35.9728 Y70.6274 
G01 X-35.9840 Y70.6128 
G01 X-35.9910 Y70.5958 
G01 X-36.0002 Y70.5798 
G01 X-36.0050 Y70.5620 
G01 X-36.0120 Y70.5450 
G01 X-36.0144 Y70.5268 
G01 X-36.0192 Y70.5090 
G01 X-36.0192 Y70.4906 
G01 X-36.0216 Y70.4723 
G01 X-36.0192 Y70.4540 
G01 X-36.0192 Y70.4356 
G01 X-36.0144 Y70.4178 
G01 X-36.0120 Y70.3996 
G01 X-36.0050 Y70.3826 
G01 X-36.0002 Y70.3648 
G01 X-35.9910 Y70.3488 
G01 X-35.8640 Y70.0421 
G01 X-35.8640 Y69.6578 
G01 X-36.0111 Y69.3028 
G01 X-36.2828 Y69.0311 
G01 X-36.6378 Y68.8840 
G01 X-37.0222 Y68.8840 
G01 X-37.3772 Y69.0311 
G01 X-37.6489 Y69.3028 
G01 X-37.7960 Y69.6578 
G01 X-37.7960 Y70.0422 
G01 X-37.6690 Y70.3488 
G01 X-37.6598 Y70.3648 
G01 X-37.6550 Y70.3826 
G01 X-37.6479 Y70.3996 
G01 X-37.6455 Y70.4178 
G01 X-37.6408 Y70.4356 
G01 X-37.6408 Y70.4540 
G01 X-37.6384 Y70.4723 
G01 X-37.6408 Y70.4905 
G01 X-37.6408 Y70.5090 
G01 X-37.6455 Y70.5268 
G01 X-37.6479 Y70.5450 
G01 X-37.6550 Y70.5620 
G01 X-37.6598 Y70.5798 
G01 X-37.6690 Y70.5958 
G01 X-37.6760 Y70.6128 
G01 X-37.6872 Y70.6274 
G01 X-37.6964 Y70.6434 
G01 X-37.7095 Y70.6564 
G01 X-37.7207 Y70.6710 
G01 X-37.7353 Y70.6822 
G01 X-37.7483 Y70.6952 
G01 X-37.7643 Y70.7044 
G01 X-37.7789 Y70.7157 
G01 X-37.7959 Y70.7227 
G01 X-37.8118 Y70.7319 
G01 X-37.8296 Y70.7367 
G01 X-37.8466 Y70.7437 
G01 X-37.8649 Y70.7461 
G01 X-37.8827 Y70.7509 
G01 X-37.9011 Y70.7509 
G01 X-37.9194 Y70.7533 
G01 X-37.9376 Y70.7509 
G01 X-38.2624 Y70.7509 
G01 X-38.2806 Y70.7533 
G01 X-38.2989 Y70.7509 
G01 X-38.3173 Y70.7509 
G01 X-38.3351 Y70.7461 
G01 X-38.3533 Y70.7437 
G01 X-38.3704 Y70.7367 
G01 X-38.3882 Y70.7319 
G01 X-38.4041 Y70.7227 
G01 X-38.4211 Y70.7157 
G01 X-38.4357 Y70.7044 
G01 X-38.4517 Y70.6952 
G01 X-38.4647 Y70.6822 
G01 X-38.4793 Y70.6710 
G01 X-38.4905 Y70.6564 
G01 X-38.5036 Y70.6434 
G01 X-38.5128 Y70.6274 
G01 X-38.5240 Y70.6128 
G01 X-38.5310 Y70.5958 
G01 X-38.5402 Y70.5798 
G01 X-38.5450 Y70.5620 
G01 X-38.5520 Y70.5450 
G01 X-38.5544 Y70.5268 
G01 X-38.5592 Y70.5090 
G01 X-38.5592 Y70.4906 
G01 X-38.5616 Y70.4723 
G01 X-38.5592 Y70.4540 
G01 X-38.5592 Y70.4356 
G01 X-38.5544 Y70.4178 
G01 X-38.5520 Y70.3996 
G01 X-38.5450 Y70.3826 
G01 X-38.5402 Y70.3648 
G01 X-38.5310 Y70.3488 
G01 X-38.4040 Y70.0422 
G01 X-38.4040 Y69.6578 
G01 X-38.5511 Y69.3028 
G01 X-38.8228 Y69.0311 
G01 X-39.1778 Y68.8840 
G01 X-39.5622 Y68.8840 
G01 X-39.9172 Y69.0311 
G01 X-40.1889 Y69.3028 
G01 X-40.3360 Y69.6578 
G01 X-40.3360 Y70.0422 
G01 X-40.2090 Y70.3488 
G01 X-40.1998 Y70.3648 
G01 X-40.1950 Y70.3826 
G01 X-40.1879 Y70.3996 
G01 X-40.1855 Y70.4178 
G01 X-40.1808 Y70.4356 
G01 X-40.1808 Y70.4540 
G01 X-40.1784 Y70.4723 
G01 X-40.1808 Y70.4905 
G01 X-40.1808 Y70.5090 
G01 X-40.1855 Y70.5268 
G01 X-40.1879 Y70.5450 
G01 X-40.1950 Y70.5620 
G01 X-40.1998 Y70.5798 
G01 X-40.2090 Y70.5958 
G01 X-40.2160 Y70.6128 
G01 X-40.2272 Y70.6274 
G01 X-40.2364 Y70.6434 
G01 X-40.2495 Y70.6564 
G01 X-40.2607 Y70.6710 
G01 X-40.2753 Y70.6822 
G01 X-40.2883 Y70.6952 
G01 X-40.3043 Y70.7044 
G01 X-40.3189 Y70.7157 
G01 X-40.3359 Y70.7227 
G01 X-40.3518 Y70.7319 
G01 X-40.3696 Y70.7367 
G01 X-40.3866 Y70.7437 
G01 X-40.4049 Y70.7461 
G01 X-40.4227 Y70.7509 
G01 X-40.4411 Y70.7509 
G01 X-40.4594 Y70.7533 
G01 X-40.4776 Y70.7509 
G01 X-40.8024 Y70.7509 
G01 X-40.8206 Y70.7533 
G01 X-40.8389 Y70.7509 
G01 X-40.8573 Y70.7509 
G01 X-40.8751 Y70.7461 
G01 X-40.8933 Y70.7437 
G01 X-40.9104 Y70.7367 
G01 X-40.9282 Y70.7319 
G01 X-40.9441 Y70.7227 
G01 X-40.9611 Y70.7157 
G01 X-40.9757 Y70.7044 
G01 X-40.9917 Y70.6952 
G01 X-41.0047 Y70.6822 
G01 X-41.0193 Y70.6710 
G01 X-41.0305 Y70.6564 
G01 X-41.0436 Y70.6434 
G01 X-41.0528 Y70.6274 
G01 X-41.0640 Y70.6128 
G01 X-41.0710 Y70.5958 
G01 X-41.0802 Y70.5798 
G01 X-41.0850 Y70.5620 
G01 X-41.0920 Y70.5450 
G01 X-41.0945 Y70.5268 
G01 X-41.0992 Y70.5090 
G01 X-41.0992 Y70.4906 
G01 X-41.1016 Y70.4723 
G01 X-41.0992 Y70.4540 
G01 X-41.0992 Y70.4356 
G01 X-41.0945 Y70.4178 
G01 X-41.0920 Y70.3996 
G01 X-41.0850 Y70.3826 
G01 X-41.0802 Y70.3648 
G01 X-41.0710 Y70.3488 
G01 X-40.9440 Y70.0422 
G01 X-40.9440 Y69.6578 
G01 X-41.0911 Y69.3028 
G01 X-41.3628 Y69.0311 
G01 X-41.7178 Y68.8840 
G01 X-42.1022 Y68.8840 
G01 X-42.4572 Y69.0311 
G01 X-42.7289 Y69.3028 
G01 X-42.8760 Y69.6578 
G01 X-42.8760 Y70.0422 
G01 X-42.7490 Y70.3488 
G01 X-42.7398 Y70.3648 
G01 X-42.7350 Y70.3826 
G01 X-42.7279 Y70.3996 
G01 X-42.7255 Y70.4178 
G01 X-42.7208 Y70.4356 
G01 X-42.7208 Y70.4540 
G01 X-42.7184 Y70.4723 
G01 X-42.7208 Y70.4905 
G01 X-42.7208 Y70.5090 
G01 X-42.7255 Y70.5268 
G01 X-42.7279 Y70.5450 
G01 X-42.7350 Y70.5620 
G01 X-42.7398 Y70.5798 
G01 X-42.7490 Y70.5958 
G01 X-42.7560 Y70.6128 
G01 X-42.7672 Y70.6274 
G01 X-42.7764 Y70.6434 
G01 X-42.7895 Y70.6564 
G01 X-42.8007 Y70.6710 
G01 X-42.8153 Y70.6822 
G01 X-42.8283 Y70.6952 
G01 X-42.8443 Y70.7044 
G01 X-42.8589 Y70.7157 
G01 X-42.8759 Y70.7227 
G01 X-42.8918 Y70.7319 
G01 X-42.9096 Y70.7367 
G01 X-42.9266 Y70.7437 
G01 X-42.9449 Y70.7461 
G01 X-42.9627 Y70.7509 
G01 X-42.9811 Y70.7509 
G01 X-42.9994 Y70.7533 
G01 X-43.0176 Y70.7509 
G01 X-43.3424 Y70.7509 
G01 X-43.3606 Y70.7533 
G01 X-43.3789 Y70.7509 
G01 X-43.3973 Y70.7509 
G01 X-43.4151 Y70.7461 
G01 X-43.4333 Y70.7437 
G01 X-43.4504 Y70.7367 
G01 X-43.4682 Y70.7319 
G01 X-43.4841 Y70.7227 
G01 X-43.5011 Y70.7157 
G01 X-43.5157 Y70.7044 
G01 X-43.5317 Y70.6952 
G01 X-43.5447 Y70.6822 
G01 X-43.5593 Y70.6710 
G01 X-43.5705 Y70.6564 
G01 X-43.5836 Y70.6434 
G01 X-43.5928 Y70.6274 
G01 X-43.6040 Y70.6128 
G01 X-43.6110 Y70.5958 
G01 X-43.6202 Y70.5798 
G01 X-43.6250 Y70.5620 
G01 X-43.6320 Y70.5450 
G01 X-43.6345 Y70.5268 
G01 X-43.6392 Y70.5090 
G01 X-43.6392 Y70.4906 
G01 X-43.6416 Y70.4723 
G01 X-43.6392 Y70.4540 
G01 X-43.6392 Y70.4356 
G01 X-43.6345 Y70.4178 
G01 X-43.6320 Y70.3996 
G01 X-43.6250 Y70.3826 
G01 X-43.6202 Y70.3648 
G01 X-43.6110 Y70.3488 
G01 X-43.4840 Y70.0421 
G01 X-43.4840 Y69.6578 
G01 X-43.6311 Y69.3028 
G01 X-43.9028 Y69.0311 
G01 X-44.2578 Y68.8840 
G01 X-44.6422 Y68.8840 
G01 X-44.9972 Y69.0311 
G01 X-45.2689 Y69.3028 
G01 X-45.4160 Y69.6578 
G01 X-45.4160 Y70.0422 
G01 X-45.2890 Y70.3488 
G01 X-45.2798 Y70.3648 
G01 X-45.2750 Y70.3826 
G01 X-45.2679 Y70.3996 
G01 X-45.2655 Y70.4178 
G01 X-45.2608 Y70.4356 
G01 X-45.2608 Y70.4540 
G01 X-45.2584 Y70.4723 
G01 X-45.2608 Y70.4905 
G01 X-45.2608 Y70.5090 
G01 X-45.2655 Y70.5268 
G01 X-45.2679 Y70.5450 
G01 X-45.2750 Y70.5620 
G01 X-45.2798 Y70.5798 
G01 X-45.2890 Y70.5958 
G01 X-45.2960 Y70.6128 
G01 X-45.3072 Y70.6274 
G01 X-45.3164 Y70.6434 
G01 X-45.3295 Y70.6564 
G01 X-45.3407 Y70.6710 
G01 X-45.3553 Y70.6822 
G01 X-45.3683 Y70.6952 
G01 X-45.3843 Y70.7044 
G01 X-45.3989 Y70.7157 
G01 X-45.4159 Y70.7227 
G01 X-45.4318 Y70.7319 
G01 X-45.4496 Y70.7367 
G01 X-45.4666 Y70.7437 
G01 X-45.4849 Y70.7461 
G01 X-45.5027 Y70.7509 
G01 X-45.5211 Y70.7509 
G01 X-45.5394 Y70.7533 
G01 X-45.5576 Y70.7509 
G01 X-45.8824 Y70.7509 
G01 X-45.9006 Y70.7533 
G01 X-45.9189 Y70.7509 
G01 X-45.9373 Y70.7509 
G01 X-45.9551 Y70.7461 
G01 X-45.9734 Y70.7437 
G01 X-45.9903 Y70.7367 
G01 X-46.0082 Y70.7319 
G01 X-46.0241 Y70.7227 
G01 X-46.0411 Y70.7157 
G01 X-46.0557 Y70.7044 
G01 X-46.0717 Y70.6952 
G01 X-46.0847 Y70.6822 
G01 X-46.0993 Y70.6710 
G01 X-46.1105 Y70.6564 
G01 X-46.1236 Y70.6434 
G01 X-46.1328 Y70.6274 
G01 X-46.1440 Y70.6128 
G01 X-46.1510 Y70.5958 
G01 X-46.1602 Y70.5798 
G01 X-46.1650 Y70.5620 
G01 X-46.1720 Y70.5450 
G01 X-46.1744 Y70.5268 
G01 X-46.1792 Y70.5090 
G01 X-46.1792 Y70.4906 
G01 X-46.1816 Y70.4723 
G01 X-46.1792 Y70.4540 
G01 X-46.1792 Y70.4356 
G01 X-46.1744 Y70.4178 
G01 X-46.1720 Y70.3996 
G01 X-46.1650 Y70.3826 
G01 X-46.1602 Y70.3648 
G01 X-46.1510 Y70.3488 
G01 X-46.0240 Y70.0422 
G01 X-46.0240 Y69.6578 
G01 X-46.1711 Y69.3028 
G01 X-46.4428 Y69.0311 
G01 X-46.7978 Y68.8840 
G01 X-47.1822 Y68.8840 
G01 X-47.5372 Y69.0311 
G01 X-47.8089 Y69.3028 
G01 X-47.9560 Y69.6578 
G01 X-47.9560 Y70.0422 
G01 X-47.8290 Y70.3488 
G01 X-47.8198 Y70.3648 
G01 X-47.8150 Y70.3826 
G01 X-47.8079 Y70.3996 
G01 X-47.8055 Y70.4178 
G01 X-47.8008 Y70.4356 
G01 X-47.8008 Y70.4540 
G01 X-47.7984 Y70.4723 
G01 X-47.8008 Y70.4905 
G01 X-47.8008 Y70.5090 
G01 X-47.8055 Y70.5268 
G01 X-47.8079 Y70.5450 
G01 X-47.8150 Y70.5620 
G01 X-47.8198 Y70.5798 
G01 X-47.8290 Y70.5958 
G01 X-47.8360 Y70.6128 
G01 X-47.8472 Y70.6274 
G01 X-47.8564 Y70.6434 
G01 X-47.8695 Y70.6564 
G01 X-47.8807 Y70.6710 
G01 X-47.8953 Y70.6822 
G01 X-47.9083 Y70.6952 
G01 X-47.9243 Y70.7044 
G01 X-47.9389 Y70.7157 
G01 X-47.9559 Y70.7227 
G01 X-47.9718 Y70.7319 
G01 X-47.9814 Y70.7345 
G01 X-47.9814 Y71.4891 
G01 X-27.1921 Y71.4891 
G01 X-27.1213 Y71.5081 
G01 X-27.0577 Y71.5448 
G01 X-27.0059 Y71.5966 
G01 X-26.9692 Y71.6602 
G01 X-26.9502 Y71.7310 
G01 X-26.9502 Y71.8679 
G01 X-26.9692 Y71.9387 
G01 X-27.0059 Y72.0023 
G01 X-27.0577 Y72.0541 
G01 X-27.1213 Y72.0908 
G01 X-27.1921 Y72.1098 
G01 X-42.0261 Y72.1098 
G01 X-42.2459 Y72.3296 
G01 X-43.4509 Y73.5347 
G01 X-43.5028 Y73.5865 
G01 X-43.5663 Y73.6232 
G01 X-43.6372 Y73.6422 
G01 X-43.7105 Y73.6422 
G01 X-43.7814 Y73.6232 
G01 X-43.8449 Y73.5865 
G01 X-43.9747 Y73.4567 
G01 X-44.2831 Y73.3290 
G01 X-44.6169 Y73.3290 
G01 X-44.9252 Y73.4567 
G01 X-45.1613 Y73.6927 
G01 X-45.2890 Y74.0011 
G01 X-45.2890 Y75.8589 
G01 X-45.1613 Y76.1672 
G01 X-44.9252 Y76.4033 
G01 X-44.6169 Y76.5310 
G01 X-44.2831 Y76.5310 
G01 X-43.9747 Y76.4033 
G01 X-43.7387 Y76.1672 
G01 X-43.6110 Y75.8589 
G01 X-43.6110 Y74.5660 
G01 X-43.5920 Y74.4951 
G01 X-43.5558 Y74.4324 
G01 X-43.5288 Y74.4050 
G01 X-43.5035 Y74.3797 
G01 X-41.8762 Y72.7524 
G01 X-41.8496 Y72.7259 
G01 X-41.7861 Y72.6892 
G01 X-41.7152 Y72.6702 
G01 X-26.8648 Y72.6702 
G01 X-26.7939 Y72.6892 
G01 X-26.7304 Y72.7259 
G01 X-25.0003 Y74.4559 
G01 X-24.9485 Y74.5078 
G01 X-24.9118 Y74.5713 
G01 X-24.8928 Y74.6422 
G01 X-24.8928 Y75.2460 
G01 X-24.4460 Y75.6928 
G01 X-23.8140 Y75.6928 
G01 X-23.3672 Y75.2460 
G01 X-23.3672 Y74.6140 
G01 X-23.8140 Y74.1672 
G01 X-24.4178 Y74.1672 
G01 X-24.4887 Y74.1482 
G01 X-24.5522 Y74.1115 
G01 X-25.4920 Y73.1717 
G01 X-25.5439 Y73.1199 
G01 X-25.5806 Y73.0563 
G01 X-25.5995 Y72.9855 
G01 X-25.5995 Y72.9121 
G01 X-25.5806 Y72.8413 
G01 X-25.5439 Y72.7777 
G01 X-25.4920 Y72.7259 
G01 X-25.4285 Y72.6892 
G01 X-25.3576 Y72.6702 
G01 X-17.2349 Y72.6702 
G01 X-17.1640 Y72.6892 
G01 X-17.1005 Y72.7259 
G01 X-17.0494 Y72.7769 
G01 X-17.0119 Y72.8413 
G01 X-17.0111 Y72.8443 
G01 X-16.9930 Y72.9121 
G01 X-16.9930 Y72.9855 
G01 X-17.0119 Y73.0563 
G01 X-17.0486 Y73.1199 
G01 X-17.1005 Y73.1717 
G01 X-17.2728 Y73.3440 
G01 X-17.2728 Y73.9478 
G01 X-17.2918 Y74.0187 
G01 X-17.3285 Y74.0822 
G01 X-21.5985 Y78.3523 
G01 X-21.6504 Y78.4041 
G01 X-21.7139 Y78.4408 
G01 X-21.7848 Y78.4598 
G01 X-56.9552 Y78.4598 
G01 X-57.0261 Y78.4408 
G01 X-57.0896 Y78.4041 
G01 X-57.1415 Y78.3523 
G01 X-59.3023 Y76.1915 
G01 X-59.3541 Y76.1396 
G01 X-59.3908 Y76.0761 
G01 X-59.4098 Y76.0052 
G01 X-59.4098 Y48.9648 
G01 X-59.3908 Y48.8939 
G01 X-59.3541 Y48.8304 
G01 X-58.7348 Y48.2111 
G01 X-58.7273 Y48.2013 
G01 X-59.4114 Y48.8854 
G01 X-59.4114 Y76.0846 
G01 X-57.0346 Y78.4614 
G01 X-21.7054 Y78.4614 
G01 X-17.2452 Y74.0012 
G01 X-17.2712 Y73.9753 
G01 X-17.2712 Y73.3447 
G01 X-16.8253 Y72.8988 
G01 X-16.1947 Y72.8988 
G01 X-15.7488 Y73.3447 
G01 X-15.7488 Y73.9753 
G01 X-16.1947 Y74.4212 
G01 X-16.8253 Y74.4212 
G01 X-16.8512 Y74.3952 
G01 X-21.3671 Y78.9111 
G01 X-21.4189 Y78.9629 
G01 X-21.4825 Y78.9996 
G01 X-21.5533 Y79.0186 
G01 X-57.1867 Y79.0186 
G01 X-57.2575 Y78.9996 
G01 X-57.3211 Y78.9629 
G01 X-59.8611 Y76.4229 
G01 X-59.9129 Y76.3711 
G01 X-59.9496 Y76.3075 
G01 X-59.9686 Y76.2367 
G01 X-59.9686 Y48.7333 
G01 X-59.9496 Y48.6625 
G01 X-59.9129 Y48.5989 
G01 X-59.1213 Y47.8073 
G01 X-59.1311 Y47.8148 
G01 X-59.3614 Y48.0451 
G01 X-59.3810 Y48.0669 
G01 X-59.3872 Y48.0710 
G01 X-59.3924 Y48.0762 
G01 X-59.4179 Y48.0909 
G01 X-59.4425 Y48.1069 
G01 X-59.4496 Y48.1092 
G01 X-59.4560 Y48.1129 
G01 X-59.4843 Y48.1205 
G01 X-59.5123 Y48.1296 
G01 X-59.5197 Y48.1299 
G01 X-59.5268 Y48.1319 
G01 X-59.5562 Y48.1319 
G01 X-59.5856 Y48.1334 
G01 X-59.5928 Y48.1319 
G01 X-59.6002 Y48.1319 
G01 X-59.6286 Y48.1242 
G01 X-59.6573 Y48.1181 
G01 X-59.6639 Y48.1148 
G01 X-59.6710 Y48.1129 
G01 X-59.6965 Y48.0982 
G01 X-59.7227 Y48.0848 
G01 X-59.7282 Y48.0799 
G01 X-59.7346 Y48.0762 
G01 X-59.7554 Y48.0554 
G01 X-59.7772 Y48.0358 
G01 X-59.7812 Y48.0295 
G01 X-59.7864 Y48.0243 
G01 X-59.8011 Y47.9989 
G01 X-59.8171 Y47.9742 
G01 X-59.8194 Y47.9672 
G01 X-59.8231 Y47.9608 
G01 X-59.8307 Y47.9324 
G01 X-59.8398 Y47.9045 
G01 X-59.8402 Y47.8971 
G01 X-59.8421 Y47.8899 
G01 X-59.8421 Y47.8606 
G01 X-59.8436 Y47.8312 
G01 X-59.8421 Y47.8240 
G01 X-59.8421 Y47.8166 
G01 X-59.8345 Y47.7882 
G01 X-59.8284 Y47.7595 
G01 X-59.8250 Y47.7529 
G01 X-59.8231 Y47.7457 
G01 X-59.8084 Y47.7203 
G01 X-59.7677 Y47.6403 
G01 X-59.7466 Y47.5754 
G01 X-59.8559 Y47.5754 
G01 X-59.9004 Y47.6827 
G01 X-60.0004 Y47.8324 
G01 X-60.1276 Y47.9596 
G01 X-60.2772 Y48.0596 
G01 X-60.3846 Y48.1041 
G01 X-60.3846 Y48.2134 
G01 X-60.3197 Y48.1923 
G01 X-60.2397 Y48.1516 
G01 X-60.2143 Y48.1369 
G01 X-60.2071 Y48.1350 
G01 X-60.2005 Y48.1316 
G01 X-60.1718 Y48.1255 
G01 X-60.1434 Y48.1179 
G01 X-60.1360 Y48.1179 
G01 X-60.1288 Y48.1163 
G01 X-60.0994 Y48.1179 
G01 X-60.0701 Y48.1179 
G01 X-60.0629 Y48.1198 
G01 X-60.0555 Y48.1202 
G01 X-60.0276 Y48.1293 
G01 X-59.9992 Y48.1369 
G01 X-59.9928 Y48.1406 
G01 X-59.9858 Y48.1429 
G01 X-59.9611 Y48.1589 
G01 X-59.9357 Y48.1735 
G01 X-59.9305 Y48.1788 
G01 X-59.9242 Y48.1828 
G01 X-59.9046 Y48.2047 
G01 X-59.8838 Y48.2254 
G01 X-59.8801 Y48.2318 
G01 X-59.8752 Y48.2373 
G01 X-59.8618 Y48.2635 
G01 X-59.8471 Y48.2889 
G01 X-59.8452 Y48.2961 
G01 X-59.8419 Y48.3027 
G01 X-59.8357 Y48.3314 
G01 X-59.8281 Y48.3598 
G01 X-59.8281 Y48.3672 
G01 X-59.8266 Y48.3744 
G01 X-59.8281 Y48.4038 
G01 X-59.8281 Y48.4332 
G01 X-59.8301 Y48.4403 
G01 X-59.8304 Y48.4477 
G01 X-59.8395 Y48.4757 
G01 X-59.8471 Y48.5040 
G01 X-59.8508 Y48.5104 
G01 X-59.8531 Y48.5175 
G01 X-59.8691 Y48.5421 
G01 X-59.8838 Y48.5675 
G01 X-59.8890 Y48.5728 
G01 X-59.8931 Y48.5790 
G01 X-59.9149 Y48.5986 
G01 X-59.9702 Y48.6539 
G01 X-59.9702 Y56.4394 
G01 X-59.9806 Y56.4782 
G01 X-59.9892 Y56.5102 
G01 X-59.9998 Y56.5287 
G01 X-60.0259 Y56.5738 
G01 X-60.0777 Y56.6256 
G01 X-60.0953 Y56.6358 
G01 X-60.1413 Y56.6623 
G01 X-60.2121 Y56.6813 
G01 X-60.2855 Y56.6813 
G01 X-60.3243 Y56.6709 
G01 X-60.3563 Y56.6623 
G01 X-60.3748 Y56.6517 
G01 X-60.4199 Y56.6256 
G01 X-60.4503 Y56.5952 
G01 X-61.0398 Y56.5952 
G01 X-61.1107 Y56.5762 
G01 X-61.1742 Y56.5395 
G01 X-61.8423 Y55.8715 
G01 X-61.8941 Y55.8196 
G01 X-61.9308 Y55.7561 
G01 X-61.9498 Y55.6852 
G01 X-61.9498 Y48.0841 
G01 X-61.9445 Y48.0643 
G01 X-61.9308 Y48.0132 
G01 X-61.8941 Y47.9497 
G01 X-61.8423 Y47.8978 
G01 X-61.7787 Y47.8611 
G01 X-61.7079 Y47.8422 
G01 X-61.6345 Y47.8422 
G01 X-61.6147 Y47.8475 
G01 X-61.5637 Y47.8611 
G01 X-61.5001 Y47.8978 
G01 X-61.4483 Y47.9497 
G01 X-61.3724 Y48.0256 
G01 X-61.2429 Y48.1196 
G01 X-61.1003 Y48.1923 
G01 X-61.0354 Y48.2134 
G01 X-61.0354 Y48.1041 
G01 X-61.1427 Y48.0596 
G01 X-61.2924 Y47.9596 
G01 X-61.4196 Y47.8324 
G01 X-61.5196 Y47.6827 
G01 X-61.5885 Y47.5165 
G01 X-61.6236 Y47.3400 
G01 X-61.6236 Y47.1600 
G01 X-61.5885 Y46.9835 
G01 X-61.5196 Y46.8172 
G01 X-61.4196 Y46.6676 
G01 X-61.2924 Y46.5404 
G01 X-61.1427 Y46.4404 
G01 X-60.9765 Y46.3715 
G01 X-60.8000 Y46.3364 
G01 X-60.6200 Y46.3364 
G01 X-60.4435 Y46.3715 
G01 X-60.2772 Y46.4404 
G01 X-60.1276 Y46.5404 
G01 X-60.0004 Y46.6676 
G01 X-59.9004 Y46.8172 
G01 X-59.8559 Y46.9246 
G01 X-59.7466 Y46.9246 
G01 X-59.7677 Y46.8597 
G01 X-59.8404 Y46.7171 
G01 X-59.9344 Y46.5876 
G01 X-60.0476 Y46.4744 
G01 X-60.1771 Y46.3804 
G01 X-60.3197 Y46.3077 
G01 X-60.4632 Y46.2610 
G01 X-60.4689 Y46.2610 
G01 X-60.4902 Y46.2553 
G01 X-60.5120 Y46.2519 
G01 X-60.5255 Y46.2459 
G01 X-60.5397 Y46.2421 
G01 X-60.5588 Y46.2310 
G01 X-60.5790 Y46.2221 
G01 X-60.5905 Y46.2128 
G01 X-60.6033 Y46.2054 
G01 X-60.6189 Y46.1898 
G01 X-60.6360 Y46.1759 
G01 X-60.6447 Y46.1639 
G01 X-60.6551 Y46.1535 
G01 X-60.6662 Y46.1344 
G01 X-60.6791 Y46.1165 
G01 X-60.6844 Y46.1028 
G01 X-60.6918 Y46.0900 
G01 X-60.6975 Y46.0687 
G01 X-60.7054 Y46.0481 
G01 X-60.7070 Y46.0334 
G01 X-60.7108 Y46.0191 
G01 X-60.7108 Y45.9971 
G01 X-60.7131 Y45.9751 
G01 X-60.7108 Y45.9605 
G01 X-60.7108 Y45.9458 
G01 X-60.7051 Y45.9245 
G01 X-60.7016 Y45.9027 
G01 X-60.6956 Y45.8892 
G01 X-60.6918 Y45.8749 
G01 X-60.6808 Y45.8558 
G01 X-60.6718 Y45.8356 
G01 X-60.6625 Y45.8242 
G01 X-60.6551 Y45.8114 
G01 X-60.6395 Y45.7958 
G01 X-60.6299 Y45.7839 
G01 X-61.9514 Y47.1054 
G01 X-61.9514 Y55.7646 
G01 X-61.1192 Y56.5968 
G01 X-60.4672 Y56.5968 
G01 X-60.4395 Y56.6083 
G01 X-60.4183 Y56.6295 
G01 X-60.4068 Y56.6572 
G01 X-60.4068 Y57.6428 
G01 X-60.4183 Y57.6705 
G01 X-60.4395 Y57.6917 
G01 X-60.4672 Y57.7032 
G01 X-61.4528 Y57.7032 
G01 X-61.4805 Y57.6917 
G01 X-61.5017 Y57.6705 
G01 X-61.5132 Y57.6428 
G01 X-61.5132 Y56.9908 
G01 X-62.4011 Y56.1029 
G01 X-62.4529 Y56.0511 
G01 X-62.4896 Y55.9875 
G01 X-62.5086 Y55.9167 
G01 X-62.5086 Y46.9533 
G01 X-62.4896 Y46.8825 
G01 X-62.4529 Y46.8189 
G01 X-62.4011 Y46.7671 
G01 X-59.2261 Y43.5921 
G01 X-59.1625 Y43.5554 
G01 X-59.0917 Y43.5364 
G01 X-16.6254 Y43.5364 
G01 X-13.6136 Y40.5246 
G01 X-13.6136 Y34.8883 
G01 X-13.5946 Y34.8175 
G01 X-13.5579 Y34.7539 
G01 X-13.5061 Y34.7021 
G01 X-12.9229 Y34.1189 
G01 X-12.8711 Y34.0671 
G01 X-12.8075 Y34.0304 
G01 X-12.7367 Y34.0114 
G01 X-11.5454 Y34.0114 
G01 X-7.8986 Y30.3646 
G01 X-7.8986 Y28.8939 
G01 X-7.8796 Y28.8231 
G01 X-7.8429 Y28.7595 
G01 X-5.5115 Y26.4281 
G01 X-5.5275 Y26.4215 
G01 X-5.6646 Y26.3299 
G01 X-5.7812 Y26.2132 
G01 X-5.8729 Y26.0761 
G01 X-5.9360 Y25.9237 
G01 X-5.9682 Y25.7619 
G01 X-5.9682 Y25.5969 
G01 X-5.9360 Y25.4351 
G01 X-5.8729 Y25.2827 
G01 X-5.7812 Y25.1456 
G01 X-5.6646 Y25.0289 
G01 X-5.5275 Y24.9373 
G01 X-5.3751 Y24.8742 
G01 X-5.2133 Y24.8420 
G01 X-3.5243 Y24.8420 
G01 X-3.3625 Y24.8742 
G01 X-3.2101 Y24.9373 
G01 X-3.0730 Y25.0289 
G01 X-2.9563 Y25.1456 
G01 X-2.8647 Y25.2827 
G01 X-2.8016 Y25.4351 
G01 X-2.7694 Y25.5969 
G01 X-2.7694 Y25.7619 
G01 X-2.8016 Y25.9237 
G01 X-2.8647 Y26.0761 
G01 X-2.9563 Y26.2132 
G01 X-3.0730 Y26.3299 
G01 X-3.2101 Y26.4215 
G01 X-3.3625 Y26.4846 
G01 X-3.5243 Y26.5168 
G01 X-4.8122 Y26.5168 
G01 X-7.3414 Y29.0460 
G01 X-7.3414 Y30.5167 
G01 X-7.3604 Y30.5875 
G01 X-7.3971 Y30.6511 
G01 X-7.4489 Y30.7029 
G01 X-11.2589 Y34.5129 
G01 X-11.3225 Y34.5496 
G01 X-11.3933 Y34.5686 
G01 X-12.5846 Y34.5686 
G01 X-13.0564 Y35.0404 
G01 X-13.0564 Y40.6767 
G01 X-13.0754 Y40.7475 
G01 X-13.1121 Y40.8111 
G01 X-13.1639 Y40.8629 
G01 X-16.2871 Y43.9861 
G01 X-16.3389 Y44.0379 
G01 X-16.4025 Y44.0746 
G01 X-16.4733 Y44.0936 
G01 X-58.9396 Y44.0936 
G01 X-60.6220 Y45.7760 
G01 X-60.6137 Y45.7699 
G01 X-59.0205 Y44.1767 
G01 X-58.9946 Y44.1509 
G01 X-58.9311 Y44.1142 
G01 X-58.8602 Y44.0952 
G01 X-53.4156 Y44.0952 
G01 X-53.3768 Y44.1056 
G01 X-53.3447 Y44.1142 
G01 X-53.3263 Y44.1248 
G01 X-53.2812 Y44.1509 
G01 X-53.2293 Y44.2027 
G01 X-53.2192 Y44.2203 
G01 X-53.1927 Y44.2663 
G01 X-53.1737 Y44.3371 
G01 X-53.1737 Y44.4105 
G01 X-53.1841 Y44.4493 
G01 X-53.1927 Y44.4813 
G01 X-53.2033 Y44.4998 
G01 X-53.2293 Y44.5449 
G01 X-53.2598 Y44.5753 
G01 X-53.2598 Y45.5947 
G01 X-53.2147 Y45.6398 
G01 X-52.1953 Y45.6398 
G01 X-52.1456 Y45.5901 
G01 X-52.1312 Y45.5363 
G01 X-52.0945 Y45.4727 
G01 X-52.0427 Y45.4209 
G01 X-51.9791 Y45.3842 
G01 X-51.9083 Y45.3652 
G01 X-36.3898 Y45.3652 
G01 X-36.3189 Y45.3842 
G01 X-36.2554 Y45.4209 
G01 X-35.6933 Y45.9829 
G01 X-35.6836 Y45.9904 
G01 X-36.3104 Y45.3636 
G01 X-52.1518 Y45.3636 
G01 X-52.1518 Y45.5778 
G01 X-52.1633 Y45.6055 
G01 X-52.1845 Y45.6267 
G01 X-52.2122 Y45.6382 
G01 X-53.1978 Y45.6382 
G01 X-53.2255 Y45.6267 
G01 X-53.2467 Y45.6055 
G01 X-53.2582 Y45.5778 
G01 X-53.2582 Y44.5922 
G01 X-53.2467 Y44.5645 
G01 X-53.2255 Y44.5433 
G01 X-53.1978 Y44.5318 
G01 X-52.2122 Y44.5318 
G01 X-52.1845 Y44.5433 
G01 X-52.1633 Y44.5645 
G01 X-52.1518 Y44.5922 
G01 X-52.1518 Y44.8064 
G01 X-36.1583 Y44.8064 
G01 X-36.0875 Y44.8254 
G01 X-36.0239 Y44.8621 
G01 X-35.9721 Y44.9139 
G01 X-35.0871 Y45.7989 
G01 X-35.0504 Y45.8625 
G01 X-35.0314 Y45.9333 
G01 X-35.0314 Y46.1832 
G01 X-35.0298 Y46.1710 
G01 X-35.0298 Y45.8539 
G01 X-35.8073 Y45.0765 
G01 X-36.0789 Y44.8048 
G01 X-51.9083 Y44.8048 
G01 X-51.9791 Y44.7858 
G01 X-52.0427 Y44.7491 
G01 X-52.0945 Y44.6973 
G01 X-52.1312 Y44.6337 
G01 X-52.1456 Y44.5799 
G01 X-52.1806 Y44.5449 
G01 X-52.2083 Y44.4970 
G01 X-52.2173 Y44.4813 
G01 X-52.2263 Y44.4476 
G01 X-52.2363 Y44.4105 
G01 X-52.2363 Y44.3371 
G01 X-52.2173 Y44.2663 
G01 X-52.1902 Y44.2192 
G01 X-52.1806 Y44.2027 
G01 X-52.1288 Y44.1509 
G01 X-52.0809 Y44.1232 
G01 X-52.0652 Y44.1142 
G01 X-52.0316 Y44.1052 
G01 X-51.9944 Y44.0952 
G01 X-16.3939 Y44.0952 
G01 X-16.1741 Y43.8754 
G01 X-13.3265 Y41.0277 
G01 X-13.2746 Y40.9759 
G01 X-13.0548 Y40.7561 
G01 X-13.0548 Y35.1198 
G01 X-13.0358 Y35.0489 
G01 X-12.9991 Y34.9854 
G01 X-12.9473 Y34.9335 
G01 X-12.6915 Y34.6777 
G01 X-12.6396 Y34.6259 
G01 X-12.5761 Y34.5892 
G01 X-12.5052 Y34.5702 
G01 X-11.3139 Y34.5702 
G01 X-7.6115 Y30.8677 
G01 X-7.5596 Y30.8159 
G01 X-7.3398 Y30.5961 
G01 X-7.3398 Y29.1254 
G01 X-7.3208 Y29.0545 
G01 X-7.2841 Y28.9910 
G01 X-4.9191 Y26.6259 
G01 X-4.8672 Y26.5741 
G01 X-4.8037 Y26.5374 
G01 X-4.7328 Y26.5184 
G01 X-3.4399 Y26.5184 
G01 X-3.1315 Y26.3907 
G01 X-2.8955 Y26.1547 
G01 X-2.7678 Y25.8463 
G01 X-2.7678 Y25.5125 
G01 X-2.8955 Y25.2041 
G01 X-3.1315 Y24.9681 
G00 Z2.5400 
G00 X-3.1315 Y29.4893 
G01 Z-0.1778 F254.00 
G01 X-3.4399 Y29.3616 F508.00 
G01 X-5.2977 Y29.3616 
G01 X-5.6060 Y29.4893 
G01 X-5.8421 Y29.7253 
G01 X-5.9698 Y30.0337 
G01 X-5.9698 Y30.3675 
G01 X-5.8421 Y30.6759 
G01 X-5.6060 Y30.9119 
G01 X-5.2977 Y31.0396 
G01 X-3.4399 Y31.0396 
G01 X-3.1315 Y30.9119 
G01 X-2.8955 Y30.6759 
G01 X-2.7678 Y30.3675 
G01 X-2.7678 Y30.0337 
G01 X-2.8955 Y29.7253 
G01 X-3.1315 Y29.4893 
G00 Z2.5400 
G00 X-3.2101 Y29.4585 
G01 Z-0.1778 F254.00 
G01 X-3.0730 Y29.5501 F508.00 
G01 X-2.9563 Y29.6668 
G01 X-2.8647 Y29.8039 
G01 X-2.8016 Y29.9563 
G01 X-2.7694 Y30.1181 
G01 X-2.7694 Y30.2831 
G01 X-2.8016 Y30.4449 
G01 X-2.8647 Y30.5973 
G01 X-2.9563 Y30.7344 
G01 X-3.0730 Y30.8511 
G01 X-3.2101 Y30.9427 
G01 X-3.3625 Y31.0058 
G01 X-3.5243 Y31.0380 
G01 X-5.2133 Y31.0380 
G01 X-5.3751 Y31.0058 
G01 X-5.5275 Y30.9427 
G01 X-5.6646 Y30.8511 
G01 X-5.7812 Y30.7344 
G01 X-5.8729 Y30.5973 
G01 X-5.9360 Y30.4449 
G01 X-5.9682 Y30.2831 
G01 X-5.9682 Y30.1181 
G01 X-5.9360 Y29.9563 
G01 X-5.8729 Y29.8039 
G01 X-5.7812 Y29.6668 
G01 X-5.6646 Y29.5501 
G01 X-5.5275 Y29.4585 
G01 X-5.3751 Y29.3954 
G01 X-5.2133 Y29.3632 
G01 X-3.5243 Y29.3632 
G01 X-3.3625 Y29.3954 
G01 X-3.2101 Y29.4585 
G00 Z2.5400 
G00 X-9.4964 Y29.4831 
G01 Z-0.1778 F254.00 
G01 X-9.6162 Y29.3961 F508.00 
G01 X-9.7481 Y29.3289 
G01 X-9.8889 Y29.2832 
G01 X-10.0352 Y29.2600 
G01 X-10.5418 Y29.2600 
G01 X-10.5418 Y29.3632 
G01 X-10.0267 Y29.3632 
G01 X-9.8649 Y29.3954 
G01 X-9.7125 Y29.4585 
G01 X-9.5754 Y29.5501 
G01 X-9.4587 Y29.6668 
G01 X-9.3671 Y29.8039 
G01 X-9.3392 Y29.8712 
G01 X-9.2272 Y29.8712 
G01 X-9.2375 Y29.8395 
G01 X-9.3047 Y29.7076 
G01 X-9.3917 Y29.5878 
G01 X-9.4964 Y29.4831 
G00 Z2.5400 
G00 X-9.3392 Y30.5300 
G01 Z-0.1778 F254.00 
G01 X-9.3671 Y30.5973 F508.00 
G01 X-9.4587 Y30.7344 
G01 X-9.5754 Y30.8511 
G01 X-9.7125 Y30.9427 
G01 X-9.8649 Y31.0058 
G01 X-10.0267 Y31.0380 
G01 X-10.5418 Y31.0380 
G01 X-10.5418 Y31.1412 
G01 X-10.0352 Y31.1412 
G01 X-9.8889 Y31.1180 
G01 X-9.7481 Y31.0723 
G01 X-9.6162 Y31.0051 
G01 X-9.4964 Y30.9180 
G01 X-9.3917 Y30.8134 
G01 X-9.3047 Y30.6936 
G01 X-9.2375 Y30.5617 
G01 X-9.2272 Y30.5300 
G01 X-9.3392 Y30.5300 
G00 Z2.5400 
G00 X-11.2006 Y31.0380 
G01 Z-0.1778 F254.00 
G01 X-11.7157 Y31.0380 F508.00 
G01 X-11.8775 Y31.0058 
G01 X-12.0299 Y30.9427 
G01 X-12.1670 Y30.8511 
G01 X-12.2836 Y30.7344 
G01 X-12.3753 Y30.5973 
G01 X-12.4032 Y30.5300 
G01 X-12.5152 Y30.5300 
G01 X-12.5049 Y30.5617 
G01 X-12.4377 Y30.6936 
G01 X-12.3506 Y30.8134 
G01 X-12.2460 Y30.9180 
G01 X-12.1262 Y31.0051 
G01 X-11.9943 Y31.0723 
G01 X-11.8535 Y31.1180 
G01 X-11.7072 Y31.1412 
G01 X-11.2006 Y31.1412 
G01 X-11.2006 Y31.0380 
G00 Z2.5400 
G00 X-11.2006 Y29.3632 
G01 Z-0.1778 F254.00 
G01 X-11.2006 Y29.2600 F508.00 
G01 X-11.7072 Y29.2600 
G01 X-11.8534 Y29.2832 
G01 X-11.9943 Y29.3289 
G01 X-12.1262 Y29.3961 
G01 X-12.2460 Y29.4831 
G01 X-12.3506 Y29.5878 
G01 X-12.4377 Y29.7076 
G01 X-12.5049 Y29.8395 
G01 X-12.5152 Y29.8712 
G01 X-12.4031 Y29.8712 
G01 X-12.3753 Y29.8039 
G01 X-12.2836 Y29.6668 
G01 X-12.1670 Y29.5501 
G01 X-12.0299 Y29.4585 
G01 X-11.8775 Y29.3954 
G01 X-11.7157 Y29.3632 
G01 X-11.2006 Y29.3632 
G00 Z2.5400 
G00 X-11.7157 Y26.5168 
G01 Z-0.1778 F254.00 
G01 X-11.8775 Y26.4846 F508.00 
G01 X-12.0299 Y26.4215 
G01 X-12.1670 Y26.3299 
G01 X-12.2836 Y26.2132 
G01 X-12.3753 Y26.0761 
G01 X-12.4384 Y25.9237 
G01 X-12.4706 Y25.7619 
G01 X-12.4706 Y25.5969 
G01 X-12.4384 Y25.4351 
G01 X-12.3753 Y25.2827 
G01 X-12.2836 Y25.1456 
G01 X-12.1670 Y25.0289 
G01 X-12.0299 Y24.9373 
G01 X-11.8775 Y24.8742 
G01 X-11.7157 Y24.8420 
G01 X-10.0267 Y24.8420 
G01 X-9.8649 Y24.8742 
G01 X-9.7125 Y24.9373 
G01 X-9.5754 Y25.0289 
G01 X-9.4587 Y25.1456 
G01 X-9.3671 Y25.2827 
G01 X-9.3040 Y25.4351 
G01 X-9.2718 Y25.5969 
G01 X-9.2718 Y25.7619 
G01 X-9.3040 Y25.9237 
G01 X-9.3671 Y26.0761 
G01 X-9.4587 Y26.2132 
G01 X-9.5754 Y26.3299 
G01 X-9.7125 Y26.4215 
G01 X-9.8649 Y26.4846 
G01 X-10.0267 Y26.5168 
G01 X-11.7157 Y26.5168 
G00 Z2.5400 
G00 X-11.8001 Y26.5184 
G01 Z-0.1778 F254.00 
G01 X-9.9423 Y26.5184 F508.00 
G01 X-9.6339 Y26.3907 
G01 X-9.3979 Y26.1547 
G01 X-9.2702 Y25.8463 
G01 X-9.2702 Y25.5125 
G01 X-9.3979 Y25.2041 
G01 X-9.6339 Y24.9681 
G01 X-9.9423 Y24.8404 
G01 X-11.8001 Y24.8404 
G01 X-12.1084 Y24.9681 
G01 X-12.3445 Y25.2041 
G01 X-12.4722 Y25.5125 
G01 X-12.4722 Y25.8463 
G01 X-12.3445 Y26.1547 
G01 X-12.1084 Y26.3907 
G01 X-11.8001 Y26.5184 
G00 Z2.5400 
G00 X-11.8001 Y36.2704 
G01 Z-0.1778 F254.00 
G01 X-12.1084 Y36.3981 F508.00 
G01 X-12.3445 Y36.6341 
G01 X-12.4722 Y36.9425 
G01 X-12.4722 Y37.2763 
G01 X-12.3445 Y37.5847 
G01 X-12.1084 Y37.8207 
G01 X-11.8001 Y37.9484 
G01 X-9.9423 Y37.9484 
G01 X-9.6339 Y37.8207 
G01 X-9.3979 Y37.5847 
G01 X-9.2702 Y37.2763 
G01 X-9.2702 Y36.9425 
G01 X-9.3979 Y36.6341 
G01 X-9.6339 Y36.3981 
G01 X-9.9423 Y36.2704 
G01 X-11.8001 Y36.2704 
G00 Z2.5400 
G00 X-11.7157 Y36.2720 
G01 Z-0.1778 F254.00 
G01 X-10.0267 Y36.2720 F508.00 
G01 X-9.8649 Y36.3042 
G01 X-9.7125 Y36.3673 
G01 X-9.5754 Y36.4589 
G01 X-9.4587 Y36.5756 
G01 X-9.3671 Y36.7127 
G01 X-9.3040 Y36.8651 
G01 X-9.2718 Y37.0269 
G01 X-9.2718 Y37.1919 
G01 X-9.3040 Y37.3537 
G01 X-9.3671 Y37.5061 
G01 X-9.4587 Y37.6432 
G01 X-9.5754 Y37.7599 
G01 X-9.7125 Y37.8515 
G01 X-9.8649 Y37.9146 
G01 X-10.0267 Y37.9468 
G01 X-11.7157 Y37.9468 
G01 X-11.8775 Y37.9146 
G01 X-12.0299 Y37.8515 
G01 X-12.1670 Y37.7599 
G01 X-12.2836 Y37.6432 
G01 X-12.3753 Y37.5061 
G01 X-12.4384 Y37.3537 
G01 X-12.4706 Y37.1919 
G01 X-12.4706 Y37.0269 
G01 X-12.4384 Y36.8651 
G01 X-12.3753 Y36.7127 
G01 X-12.2836 Y36.5756 
G01 X-12.1670 Y36.4589 
G01 X-12.0299 Y36.3673 
G01 X-11.8775 Y36.3042 
G01 X-11.7157 Y36.2720 
G00 Z2.5400 
G00 X-11.7072 Y40.6900 
G01 Z-0.1778 F254.00 
G01 X-11.8534 Y40.7132 F508.00 
G01 X-11.9943 Y40.7589 
G01 X-12.1262 Y40.8261 
G01 X-12.2460 Y40.9131 
G01 X-12.3506 Y41.0178 
G01 X-12.4377 Y41.1376 
G01 X-12.5049 Y41.2695 
G01 X-12.5152 Y41.3012 
G01 X-12.4031 Y41.3012 
G01 X-12.3753 Y41.2339 
G01 X-12.2836 Y41.0968 
G01 X-12.1670 Y40.9801 
G01 X-12.0299 Y40.8885 
G01 X-11.8775 Y40.8254 
G01 X-11.7157 Y40.7932 
G01 X-11.2006 Y40.7932 
G01 X-11.2006 Y40.6900 
G01 X-11.7072 Y40.6900 
G00 Z2.5400 
G00 X-10.5418 Y40.6900 
G01 Z-0.1778 F254.00 
G01 X-10.5418 Y40.7932 F508.00 
G01 X-10.0267 Y40.7932 
G01 X-9.8649 Y40.8254 
G01 X-9.7125 Y40.8885 
G01 X-9.5754 Y40.9801 
G01 X-9.4587 Y41.0968 
G01 X-9.3671 Y41.2339 
G01 X-9.3392 Y41.3012 
G01 X-9.2272 Y41.3012 
G01 X-9.2375 Y41.2695 
G01 X-9.3047 Y41.1376 
G01 X-9.3917 Y41.0178 
G01 X-9.4964 Y40.9131 
G01 X-9.6162 Y40.8261 
G01 X-9.7481 Y40.7589 
G01 X-9.8889 Y40.7132 
G01 X-10.0352 Y40.6900 
G01 X-10.5418 Y40.6900 
G00 Z2.5400 
G00 X-10.5418 Y42.4680 
G01 Z-0.1778 F254.00 
G01 X-10.5418 Y42.5712 F508.00 
G01 X-10.0352 Y42.5712 
G01 X-9.8889 Y42.5480 
G01 X-9.7481 Y42.5023 
G01 X-9.6162 Y42.4351 
G01 X-9.4964 Y42.3480 
G01 X-9.3917 Y42.2434 
G01 X-9.3047 Y42.1236 
G01 X-9.2375 Y41.9917 
G01 X-9.2272 Y41.9600 
G01 X-9.3392 Y41.9600 
G01 X-9.3671 Y42.0273 
G01 X-9.4587 Y42.1644 
G01 X-9.5754 Y42.2811 
G01 X-9.7125 Y42.3727 
G01 X-9.8649 Y42.4358 
G01 X-10.0267 Y42.4680 
G01 X-10.5418 Y42.4680 
G00 Z2.5400 
G00 X-11.2006 Y42.4680 
G01 Z-0.1778 F254.00 
G01 X-11.7157 Y42.4680 F508.00 
G01 X-11.8775 Y42.4358 
G01 X-12.0299 Y42.3727 
G01 X-12.1670 Y42.2811 
G01 X-12.2836 Y42.1644 
G01 X-12.3753 Y42.0273 
G01 X-12.4032 Y41.9600 
G01 X-12.5152 Y41.9600 
G01 X-12.5049 Y41.9917 
G01 X-12.4377 Y42.1236 
G01 X-12.3506 Y42.2434 
G01 X-12.2460 Y42.3480 
G01 X-12.1262 Y42.4351 
G01 X-11.9943 Y42.5023 
G01 X-11.8535 Y42.5480 
G01 X-11.7072 Y42.5712 
G01 X-11.2006 Y42.5712 
G01 X-11.2006 Y42.4680 
G00 Z2.5400 
G00 X-10.9372 Y45.1668 
G01 Z-0.1778 F254.00 
G01 X-10.9095 Y45.1783 F508.00 
G01 X-10.8883 Y45.1995 
G01 X-10.8768 Y45.2272 
G01 X-10.8768 Y45.4414 
G01 X-10.2754 Y45.4414 
G01 X-7.8986 Y43.0646 
G01 X-7.8986 Y40.3239 
G01 X-7.8796 Y40.2531 
G01 X-7.8429 Y40.1895 
G01 X-5.5115 Y37.8581 
G01 X-5.5275 Y37.8515 
G01 X-5.6646 Y37.7599 
G01 X-5.7812 Y37.6432 
G01 X-5.8729 Y37.5061 
G01 X-5.9360 Y37.3537 
G01 X-5.9682 Y37.1919 
G01 X-5.9682 Y37.0269 
G01 X-5.9360 Y36.8651 
G01 X-5.8729 Y36.7127 
G01 X-5.7812 Y36.5756 
G01 X-5.6646 Y36.4589 
G01 X-5.5275 Y36.3673 
G01 X-5.3751 Y36.3042 
G01 X-5.2133 Y36.2720 
G01 X-3.5243 Y36.2720 
G01 X-3.3625 Y36.3042 
G01 X-3.2101 Y36.3673 
G01 X-3.0730 Y36.4589 
G01 X-2.9563 Y36.5756 
G01 X-2.8647 Y36.7127 
G01 X-2.8016 Y36.8651 
G01 X-2.7694 Y37.0269 
G01 X-2.7694 Y37.1919 
G01 X-2.8016 Y37.3537 
G01 X-2.8647 Y37.5061 
G01 X-2.9563 Y37.6432 
G01 X-3.0730 Y37.7599 
G01 X-3.2101 Y37.8515 
G01 X-3.3625 Y37.9146 
G01 X-3.5243 Y37.9468 
G01 X-4.8122 Y37.9468 
G01 X-7.3414 Y40.4760 
G01 X-7.3414 Y43.2167 
G01 X-7.3604 Y43.2875 
G01 X-7.3971 Y43.3511 
G01 X-7.4489 Y43.4029 
G01 X-9.9889 Y45.9429 
G01 X-10.0525 Y45.9796 
G01 X-10.1233 Y45.9986 
G01 X-10.8768 Y45.9986 
G01 X-10.8768 Y46.2128 
G01 X-10.8883 Y46.2405 
G01 X-10.9095 Y46.2617 
G01 X-10.9372 Y46.2732 
G01 X-11.9228 Y46.2732 
G01 X-11.9505 Y46.2617 
G01 X-11.9717 Y46.2405 
G01 X-11.9832 Y46.2128 
G01 X-11.9832 Y45.2272 
G01 X-11.9717 Y45.1995 
G01 X-11.9505 Y45.1783 
G01 X-11.9228 Y45.1668 
G01 X-10.9372 Y45.1668 
G00 Z2.5400 
G00 X-10.9203 Y45.1652 
G01 Z-0.1778 F254.00 
G01 X-11.9397 Y45.1652 F508.00 
G01 X-11.9848 Y45.2103 
G01 X-11.9848 Y46.2297 
G01 X-11.9397 Y46.2748 
G01 X-10.9203 Y46.2748 
G01 X-10.8706 Y46.2251 
G01 X-10.8562 Y46.1713 
G01 X-10.8195 Y46.1077 
G01 X-10.7677 Y46.0559 
G01 X-10.7041 Y46.0192 
G01 X-10.6333 Y46.0002 
G01 X-10.0439 Y46.0002 
G01 X-7.6115 Y43.5677 
G01 X-7.3398 Y43.2961 
G01 X-7.3398 Y40.5554 
G01 X-7.3208 Y40.4845 
G01 X-7.2841 Y40.4210 
G01 X-4.9191 Y38.0559 
G01 X-4.8672 Y38.0041 
G01 X-4.8037 Y37.9674 
G01 X-4.7328 Y37.9484 
G01 X-3.4399 Y37.9484 
G01 X-3.1315 Y37.8207 
G01 X-2.8955 Y37.5847 
G01 X-2.7678 Y37.2763 
G01 X-2.7678 Y36.9425 
G01 X-2.8955 Y36.6341 
G01 X-3.1315 Y36.3981 
G01 X-3.4399 Y36.2704 
G01 X-5.2977 Y36.2704 
G01 X-5.6060 Y36.3981 
G01 X-5.8421 Y36.6341 
G01 X-5.9698 Y36.9425 
G01 X-5.9698 Y37.2763 
G01 X-5.8421 Y37.5847 
G01 X-5.7641 Y37.6626 
G01 X-5.7123 Y37.7145 
G01 X-5.6756 Y37.7780 
G01 X-5.6566 Y37.8488 
G01 X-5.6566 Y37.9222 
G01 X-5.6756 Y37.9931 
G01 X-5.7118 Y38.0558 
G01 X-5.7480 Y38.0924 
G01 X-5.7641 Y38.1085 
G01 X-7.9002 Y40.2445 
G01 X-7.9002 Y42.9852 
G01 X-7.9192 Y43.0561 
G01 X-7.9559 Y43.1196 
G01 X-10.1685 Y45.3323 
G01 X-10.2204 Y45.3841 
G01 X-10.2839 Y45.4208 
G01 X-10.3548 Y45.4398 
G01 X-10.6333 Y45.4398 
G01 X-10.7041 Y45.4208 
G01 X-10.7677 Y45.3841 
G01 X-10.8195 Y45.3323 
G01 X-10.8562 Y45.2687 
G01 X-10.8706 Y45.2148 
G01 X-10.9203 Y45.1652 
G00 Z2.5400 
G00 X-16.2288 Y45.9312 
G01 Z-0.1778 F254.00 
G01 X-16.8006 Y45.6944 F508.00 
G01 X-17.4194 Y45.6944 
G01 X-17.9912 Y45.9312 
G01 X-18.4288 Y46.3688 
G01 X-18.6656 Y46.9406 
G01 X-18.6656 Y47.5594 
G01 X-18.4288 Y48.1312 
G01 X-17.9912 Y48.5688 
G01 X-17.6579 Y48.7068 
G01 X-17.6401 Y48.7116 
G01 X-17.6241 Y48.7208 
G01 X-17.6071 Y48.7278 
G01 X-17.5925 Y48.7390 
G01 X-17.5766 Y48.7483 
G01 X-17.5635 Y48.7613 
G01 X-17.5489 Y48.7725 
G01 X-17.5377 Y48.7871 
G01 X-17.5247 Y48.8001 
G01 X-17.5155 Y48.8161 
G01 X-17.5043 Y48.8307 
G01 X-17.4972 Y48.8477 
G01 X-17.4880 Y48.8637 
G01 X-17.4833 Y48.8815 
G01 X-17.4762 Y48.8985 
G01 X-17.4738 Y48.9167 
G01 X-17.4690 Y48.9345 
G01 X-17.4690 Y48.9529 
G01 X-17.4666 Y48.9712 
G01 X-17.4690 Y48.9894 
G01 X-17.4690 Y49.0079 
G01 X-17.4738 Y49.0257 
G01 X-17.4762 Y49.0439 
G01 X-17.4833 Y49.0609 
G01 X-17.4880 Y49.0787 
G01 X-17.4972 Y49.0947 
G01 X-17.5043 Y49.1117 
G01 X-17.5155 Y49.1263 
G01 X-17.5247 Y49.1423 
G01 X-17.5377 Y49.1553 
G01 X-17.5489 Y49.1699 
G01 X-17.5635 Y49.1811 
G01 X-17.5766 Y49.1941 
G01 X-17.5925 Y49.2034 
G01 X-17.6071 Y49.2146 
G01 X-17.6241 Y49.2216 
G01 X-17.6401 Y49.2308 
G01 X-17.6579 Y49.2356 
G01 X-17.6749 Y49.2426 
G01 X-17.6932 Y49.2450 
G01 X-17.7110 Y49.2498 
G01 X-17.7294 Y49.2498 
G01 X-17.7416 Y49.2514 
G01 X-16.4784 Y49.2514 
G01 X-16.4906 Y49.2498 
G01 X-16.5090 Y49.2498 
G01 X-16.5268 Y49.2450 
G01 X-16.5451 Y49.2426 
G01 X-16.5621 Y49.2356 
G01 X-16.5799 Y49.2308 
G01 X-16.5959 Y49.2216 
G01 X-16.6129 Y49.2146 
G01 X-16.6275 Y49.2033 
G01 X-16.6434 Y49.1941 
G01 X-16.6564 Y49.1811 
G01 X-16.6711 Y49.1699 
G01 X-16.6823 Y49.1553 
G01 X-16.6953 Y49.1423 
G01 X-16.7045 Y49.1263 
G01 X-16.7157 Y49.1117 
G01 X-16.7228 Y49.0947 
G01 X-16.7320 Y49.0787 
G01 X-16.7367 Y49.0609 
G01 X-16.7438 Y49.0439 
G01 X-16.7462 Y49.0257 
G01 X-16.7510 Y49.0079 
G01 X-16.7510 Y48.9895 
G01 X-16.7534 Y48.9712 
G01 X-16.7510 Y48.9529 
G01 X-16.7510 Y48.9345 
G01 X-16.7462 Y48.9167 
G01 X-16.7438 Y48.8985 
G01 X-16.7367 Y48.8815 
G01 X-16.7320 Y48.8637 
G01 X-16.7228 Y48.8477 
G01 X-16.7157 Y48.8307 
G01 X-16.7045 Y48.8161 
G01 X-16.6953 Y48.8001 
G01 X-16.6823 Y48.7871 
G01 X-16.6711 Y48.7725 
G01 X-16.6564 Y48.7613 
G01 X-16.6434 Y48.7483 
G01 X-16.6275 Y48.7390 
G01 X-16.6129 Y48.7278 
G01 X-16.5959 Y48.7208 
G01 X-16.5799 Y48.7116 
G01 X-16.5621 Y48.7068 
G01 X-16.2288 Y48.5688 
G01 X-15.7912 Y48.1312 
G01 X-15.5544 Y47.5594 
G01 X-15.5544 Y46.9406 
G01 X-15.7912 Y46.3688 
G01 X-16.2288 Y45.9312 
G00 Z2.5400 
G00 X-16.4541 Y49.2498 
G01 Z-0.1778 F254.00 
G01 X-16.4663 Y49.2514 F508.00 
G01 X-7.5833 Y49.2514 
G01 X-7.5125 Y49.2704 
G01 X-7.4489 Y49.3071 
G01 X-7.3971 Y49.3589 
G01 X-3.0968 Y53.6592 
G01 X-2.9815 Y53.5440 
G01 X-2.0984 Y53.5440 
G01 X-1.4740 Y54.1684 
G01 X-1.4740 Y55.0515 
G01 X-2.0984 Y55.6760 
G01 X-2.2614 Y55.6760 
G01 X-2.2614 Y71.0046 
G01 X-1.0471 Y72.2189 
G01 X-1.0104 Y72.2825 
G01 X-0.9914 Y72.3533 
G01 X-0.9914 Y72.8988 
G01 X-0.9547 Y72.8988 
G01 X-0.5088 Y73.3447 
G01 X-0.5088 Y73.9753 
G01 X-0.9547 Y74.4212 
G01 X-1.5853 Y74.4212 
G01 X-2.0312 Y73.9753 
G01 X-2.0312 Y73.3447 
G01 X-1.5853 Y72.8988 
G01 X-1.5486 Y72.8988 
G01 X-1.5486 Y72.5054 
G01 X-2.5400 Y71.5140 
G01 X-3.6389 Y72.6129 
G01 X-3.7025 Y72.6496 
G01 X-3.7733 Y72.6686 
G01 X-11.1514 Y72.6686 
G01 X-11.1514 Y75.7237 
G01 X-11.1498 Y75.7115 
G01 X-11.1498 Y72.9121 
G01 X-11.1308 Y72.8413 
G01 X-11.0941 Y72.7777 
G01 X-11.0423 Y72.7259 
G01 X-10.9787 Y72.6892 
G01 X-10.9079 Y72.6702 
G01 X-3.6939 Y72.6702 
G01 X-2.7629 Y71.7392 
G01 X-2.7111 Y71.6873 
G01 X-2.6475 Y71.6506 
G01 X-2.5767 Y71.6317 
G01 X-2.5033 Y71.6317 
G01 X-2.4325 Y71.6506 
G01 X-2.3689 Y71.6873 
G01 X-1.6577 Y72.3985 
G01 X-1.6059 Y72.4504 
G01 X-1.5692 Y72.5139 
G01 X-1.5502 Y72.5848 
G01 X-1.5502 Y72.7827 
G01 X-1.5692 Y72.8536 
G01 X-1.6059 Y72.9171 
G01 X-2.0328 Y73.3440 
G01 X-2.0328 Y73.9760 
G01 X-1.5860 Y74.4228 
G01 X-0.9540 Y74.4228 
G01 X-0.5072 Y73.9760 
G01 X-0.5072 Y73.3440 
G01 X-0.8823 Y72.9690 
G01 X-0.9341 Y72.9171 
G01 X-0.9708 Y72.8536 
G01 X-0.9898 Y72.7827 
G01 X-0.9898 Y72.2739 
G01 X-2.1523 Y71.1115 
G01 X-2.2041 Y71.0596 
G01 X-2.2408 Y70.9961 
G01 X-2.2598 Y70.9252 
G01 X-2.2598 Y55.9183 
G01 X-2.2408 Y55.8475 
G01 X-2.2041 Y55.7839 
G01 X-1.4724 Y55.0522 
G01 X-1.4724 Y54.1678 
G01 X-2.0978 Y53.5424 
G01 X-3.1326 Y53.5424 
G01 X-3.2035 Y53.5234 
G01 X-3.2662 Y53.4872 
G01 X-7.2323 Y49.5215 
G01 X-7.5039 Y49.2498 
G01 X-16.4541 Y49.2498 
G00 Z2.5400 
G00 X-17.7537 Y49.2514 
G01 Z-0.1778 F254.00 
G01 X-17.7659 Y49.2498 F508.00 
G01 X-22.6752 Y49.2498 
G01 X-22.7461 Y49.2308 
G01 X-22.8096 Y49.1941 
G01 X-23.4051 Y48.5986 
G01 X-23.4269 Y48.5790 
G01 X-23.4310 Y48.5728 
G01 X-23.4362 Y48.5675 
G01 X-23.4509 Y48.5421 
G01 X-23.4669 Y48.5175 
G01 X-23.4692 Y48.5104 
G01 X-23.4729 Y48.5040 
G01 X-23.4805 Y48.4757 
G01 X-23.4896 Y48.4477 
G01 X-23.4899 Y48.4403 
G01 X-23.4919 Y48.4332 
G01 X-23.4919 Y48.4038 
G01 X-23.4934 Y48.3744 
G01 X-23.4919 Y48.3672 
G01 X-23.4919 Y48.3598 
G01 X-23.4842 Y48.3314 
G01 X-23.4781 Y48.3027 
G01 X-23.4748 Y48.2961 
G01 X-23.4729 Y48.2889 
G01 X-23.4582 Y48.2635 
G01 X-23.4448 Y48.2373 
G01 X-23.4399 Y48.2318 
G01 X-23.4362 Y48.2254 
G01 X-23.4154 Y48.2046 
G01 X-23.3957 Y48.1828 
G01 X-23.3895 Y48.1788 
G01 X-23.3843 Y48.1735 
G01 X-23.3589 Y48.1589 
G01 X-23.3342 Y48.1429 
G01 X-23.3272 Y48.1406 
G01 X-23.3208 Y48.1369 
G01 X-23.2924 Y48.1293 
G01 X-23.2645 Y48.1202 
G01 X-23.2571 Y48.1198 
G01 X-23.2499 Y48.1179 
G01 X-23.2206 Y48.1179 
G01 X-23.1912 Y48.1163 
G01 X-23.1840 Y48.1179 
G01 X-23.1766 Y48.1179 
G01 X-23.1482 Y48.1255 
G01 X-23.1195 Y48.1316 
G01 X-23.1129 Y48.1350 
G01 X-23.1057 Y48.1369 
G01 X-23.0802 Y48.1516 
G01 X-23.0003 Y48.1923 
G01 X-22.9354 Y48.2134 
G01 X-22.9354 Y48.1041 
G01 X-23.0428 Y48.0596 
G01 X-23.1924 Y47.9596 
G01 X-23.3196 Y47.8324 
G01 X-23.4196 Y47.6827 
G01 X-23.4641 Y47.5754 
G01 X-23.5734 Y47.5754 
G01 X-23.5523 Y47.6403 
G01 X-23.5116 Y47.7202 
G01 X-23.4969 Y47.7457 
G01 X-23.4949 Y47.7529 
G01 X-23.4916 Y47.7595 
G01 X-23.4855 Y47.7882 
G01 X-23.4779 Y47.8166 
G01 X-23.4779 Y47.8240 
G01 X-23.4763 Y47.8312 
G01 X-23.4779 Y47.8606 
G01 X-23.4779 Y47.8899 
G01 X-23.4798 Y47.8971 
G01 X-23.4802 Y47.9045 
G01 X-23.4893 Y47.9324 
G01 X-23.4969 Y47.9608 
G01 X-23.5006 Y47.9672 
G01 X-23.5028 Y47.9742 
G01 X-23.5188 Y47.9988 
G01 X-23.5335 Y48.0243 
G01 X-23.5388 Y48.0296 
G01 X-23.5428 Y48.0358 
G01 X-23.5646 Y48.0554 
G01 X-23.5854 Y48.0762 
G01 X-23.5918 Y48.0799 
G01 X-23.5973 Y48.0848 
G01 X-23.6235 Y48.0982 
G01 X-23.6489 Y48.1129 
G01 X-23.6561 Y48.1148 
G01 X-23.6627 Y48.1181 
G01 X-23.6914 Y48.1242 
G01 X-23.7198 Y48.1319 
G01 X-23.7272 Y48.1319 
G01 X-23.7344 Y48.1334 
G01 X-23.7638 Y48.1319 
G01 X-23.7932 Y48.1319 
G01 X-23.8003 Y48.1299 
G01 X-23.8077 Y48.1296 
G01 X-23.8356 Y48.1205 
G01 X-23.8640 Y48.1129 
G01 X-23.8704 Y48.1092 
G01 X-23.8775 Y48.1069 
G01 X-23.9021 Y48.0909 
G01 X-23.9275 Y48.0762 
G01 X-23.9328 Y48.0710 
G01 X-23.9390 Y48.0669 
G01 X-23.9586 Y48.0451 
G01 X-24.1889 Y47.8148 
G01 X-24.1987 Y47.8073 
G01 X-22.7546 Y49.2514 
G01 X-17.7537 Y49.2514 
G00 Z2.5400 
G00 X-18.3009 Y53.9952 
G01 Z-0.1778 F254.00 
G01 X-18.1954 Y54.1532 F508.00 
G01 X-18.1227 Y54.3287 
G01 X-18.0856 Y54.5150 
G01 X-18.0856 Y54.7050 
G01 X-18.1227 Y54.8913 
G01 X-18.1954 Y55.0668 
G01 X-18.3009 Y55.2248 
G01 X-18.4352 Y55.3591 
G01 X-18.5932 Y55.4646 
G01 X-18.7687 Y55.5373 
G01 X-18.9550 Y55.5744 
G01 X-19.1450 Y55.5744 
G01 X-19.3313 Y55.5373 
G01 X-19.5068 Y55.4646 
G01 X-19.6648 Y55.3591 
G01 X-19.7991 Y55.2248 
G01 X-19.9046 Y55.0668 
G01 X-19.9773 Y54.8913 
G01 X-20.0144 Y54.7050 
G01 X-20.0144 Y54.5150 
G01 X-19.9773 Y54.3287 
G01 X-19.9046 Y54.1532 
G01 X-19.7991 Y53.9952 
G01 X-19.6648 Y53.8609 
G01 X-19.5068 Y53.7554 
G01 X-19.3313 Y53.6827 
G01 X-19.1450 Y53.6456 
G01 X-18.9550 Y53.6456 
G01 X-18.7687 Y53.6827 
G01 X-18.5932 Y53.7554 
G01 X-18.4352 Y53.8609 
G01 X-18.3009 Y53.9952 
G00 Z2.5400 
G00 X-20.8409 Y53.9952 
G01 Z-0.1778 F254.00 
G01 X-20.7354 Y54.1532 F508.00 
G01 X-20.6627 Y54.3287 
G01 X-20.6256 Y54.5150 
G01 X-20.6256 Y54.7050 
G01 X-20.6627 Y54.8913 
G01 X-20.7354 Y55.0668 
G01 X-20.8409 Y55.2248 
G01 X-20.9752 Y55.3591 
G01 X-21.1332 Y55.4646 
G01 X-21.3087 Y55.5373 
G01 X-21.4950 Y55.5744 
G01 X-21.6850 Y55.5744 
G01 X-21.8713 Y55.5373 
G01 X-22.0468 Y55.4646 
G01 X-22.2048 Y55.3591 
G01 X-22.3391 Y55.2248 
G01 X-22.4446 Y55.0668 
G01 X-22.5173 Y54.8913 
G01 X-22.5544 Y54.7050 
G01 X-22.5544 Y54.5150 
G01 X-22.5173 Y54.3287 
G01 X-22.4446 Y54.1532 
G01 X-22.3391 Y53.9952 
G01 X-22.2048 Y53.8609 
G01 X-22.0468 Y53.7554 
G01 X-21.8713 Y53.6827 
G01 X-21.6850 Y53.6456 
G01 X-21.4950 Y53.6456 
G01 X-21.3087 Y53.6827 
G01 X-21.1332 Y53.7554 
G01 X-20.9752 Y53.8609 
G01 X-20.8409 Y53.9952 
G00 Z2.5400 
G00 X-23.3809 Y53.9952 
G01 Z-0.1778 F254.00 
G01 X-23.2754 Y54.1532 F508.00 
G01 X-23.2027 Y54.3287 
G01 X-23.1656 Y54.5150 
G01 X-23.1656 Y54.7050 
G01 X-23.2027 Y54.8913 
G01 X-23.2754 Y55.0668 
G01 X-23.3809 Y55.2248 
G01 X-23.5152 Y55.3591 
G01 X-23.6732 Y55.4646 
G01 X-23.8487 Y55.5373 
G01 X-24.0350 Y55.5744 
G01 X-24.2250 Y55.5744 
G01 X-24.4113 Y55.5373 
G01 X-24.5868 Y55.4646 
G01 X-24.7448 Y55.3591 
G01 X-24.8791 Y55.2248 
G01 X-24.9846 Y55.0668 
G01 X-25.0573 Y54.8913 
G01 X-25.0944 Y54.7050 
G01 X-25.0944 Y54.5150 
G01 X-25.0573 Y54.3287 
G01 X-24.9846 Y54.1532 
G01 X-24.8791 Y53.9952 
G01 X-24.7448 Y53.8609 
G01 X-24.5868 Y53.7554 
G01 X-24.4113 Y53.6827 
G01 X-24.2250 Y53.6456 
G01 X-24.0350 Y53.6456 
G01 X-23.8487 Y53.6827 
G01 X-23.6732 Y53.7554 
G01 X-23.5152 Y53.8609 
G01 X-23.3809 Y53.9952 
G00 Z2.5400 
G00 X-28.7641 Y55.4691 
G01 Z-0.1778 F254.00 
G01 X-28.9287 Y55.5373 F508.00 
G01 X-28.9314 Y55.5379 
G01 X-28.9314 Y55.7196 
G01 X-28.9298 Y55.7074 
G01 X-28.9298 Y55.6890 
G01 X-28.9250 Y55.6712 
G01 X-28.9226 Y55.6529 
G01 X-28.9156 Y55.6359 
G01 X-28.9108 Y55.6181 
G01 X-28.9016 Y55.6022 
G01 X-28.8946 Y55.5852 
G01 X-28.8833 Y55.5706 
G01 X-28.8741 Y55.5546 
G01 X-28.8611 Y55.5416 
G01 X-28.8499 Y55.5270 
G01 X-28.8353 Y55.5158 
G01 X-28.8223 Y55.5027 
G01 X-28.8063 Y55.4935 
G01 X-28.7917 Y55.4823 
G01 X-28.7747 Y55.4753 
G01 X-28.7641 Y55.4691 
G00 Z2.5400 
G00 X-28.9314 Y55.7317 
G01 Z-0.1778 F254.00 
G01 X-28.9314 Y58.4567 F508.00 
G01 X-28.9504 Y58.5275 
G01 X-28.9871 Y58.5911 
G01 X-29.0389 Y58.6429 
G01 X-30.3089 Y59.9129 
G01 X-30.3725 Y59.9496 
G01 X-30.4433 Y59.9686 
G01 X-40.6767 Y59.9686 
G01 X-40.7475 Y59.9496 
G01 X-40.8111 Y59.9129 
G01 X-40.8629 Y59.8611 
G01 X-43.4029 Y57.3211 
G01 X-43.4396 Y57.2575 
G01 X-43.4586 Y57.1867 
G01 X-43.4586 Y53.4554 
G01 X-44.5654 Y52.3486 
G01 X-50.8367 Y52.3486 
G01 X-50.9075 Y52.3296 
G01 X-50.9711 Y52.2929 
G01 X-51.0229 Y52.2411 
G01 X-53.4554 Y49.8086 
G01 X-54.6467 Y49.8086 
G01 X-54.7175 Y49.7896 
G01 X-54.7811 Y49.7529 
G01 X-54.8329 Y49.7011 
G01 X-55.8529 Y48.6811 
G01 X-55.8896 Y48.6175 
G01 X-55.9086 Y48.5467 
G01 X-55.9086 Y48.3168 
G01 X-55.9102 Y48.3289 
G01 X-55.9102 Y48.6261 
G01 X-54.9977 Y49.5385 
G01 X-54.7261 Y49.8102 
G01 X-53.5348 Y49.8102 
G01 X-53.4639 Y49.8292 
G01 X-53.4004 Y49.8659 
G01 X-51.1877 Y52.0785 
G01 X-50.9161 Y52.3502 
G01 X-44.6448 Y52.3502 
G01 X-44.5739 Y52.3692 
G01 X-44.5104 Y52.4059 
G01 X-44.4585 Y52.4577 
G01 X-44.4469 Y52.4694 
G01 X-44.3950 Y52.5212 
G01 X-44.3636 Y52.5757 
G01 X-44.3583 Y52.5848 
G01 X-44.3493 Y52.6185 
G01 X-44.3394 Y52.6556 
G01 X-44.3394 Y52.7290 
G01 X-44.3583 Y52.7998 
G01 X-44.3950 Y52.8634 
G01 X-44.4469 Y52.9152 
G01 X-44.5014 Y52.9467 
G01 X-44.5104 Y52.9519 
G01 X-44.5441 Y52.9609 
G01 X-44.5813 Y52.9709 
G01 X-53.8133 Y52.9709 
G01 X-53.8841 Y52.9519 
G01 X-53.9477 Y52.9152 
G01 X-53.9995 Y52.8634 
G01 X-54.0362 Y52.7998 
G01 X-54.0552 Y52.7290 
G01 X-54.0552 Y51.5603 
G01 X-54.1003 Y51.5152 
G01 X-55.1197 Y51.5152 
G01 X-55.1648 Y51.5603 
G01 X-55.1648 Y52.7290 
G01 X-55.1838 Y52.7998 
G01 X-55.2205 Y52.8634 
G01 X-55.2723 Y52.9152 
G01 X-55.3359 Y52.9519 
G01 X-55.4067 Y52.9709 
G01 X-58.4934 Y52.9709 
G01 X-58.6291 Y53.0271 
G01 X-58.7329 Y53.1309 
G01 X-58.7891 Y53.2666 
G01 X-58.7891 Y71.1934 
G01 X-58.7329 Y71.3291 
G01 X-58.6291 Y71.4329 
G01 X-58.4934 Y71.4891 
G01 X-56.4021 Y71.4891 
G01 X-56.3313 Y71.5081 
G01 X-56.2677 Y71.5448 
G01 X-56.2159 Y71.5966 
G01 X-56.1792 Y71.6602 
G01 X-56.1602 Y71.7310 
G01 X-56.1602 Y73.3354 
G01 X-56.1706 Y73.3741 
G01 X-56.1792 Y73.4062 
G01 X-56.1831 Y73.4130 
G01 X-56.2159 Y73.4697 
G01 X-56.2669 Y73.5208 
G01 X-56.2853 Y73.5317 
G01 X-56.3313 Y73.5583 
G01 X-56.4021 Y73.5773 
G01 X-56.4755 Y73.5773 
G01 X-56.5143 Y73.5669 
G01 X-56.5463 Y73.5583 
G01 X-56.5531 Y73.5544 
G01 X-56.6099 Y73.5216 
G01 X-56.6617 Y73.4697 
G01 X-56.6747 Y73.4567 
G01 X-56.9831 Y73.3290 
G01 X-57.3169 Y73.3290 
G01 X-57.6253 Y73.4567 
G01 X-57.8613 Y73.6927 
G01 X-57.9890 Y74.0011 
G01 X-57.9890 Y75.8589 
G01 X-57.8613 Y76.1672 
G01 X-57.6253 Y76.4033 
G01 X-57.3169 Y76.5310 
G01 X-56.9831 Y76.5310 
G01 X-56.6747 Y76.4033 
G01 X-56.5968 Y76.3253 
G01 X-56.5449 Y76.2735 
G01 X-56.4814 Y76.2368 
G01 X-56.4287 Y76.2227 
G01 X-56.4106 Y76.2178 
G01 X-56.3372 Y76.2178 
G01 X-56.2663 Y76.2368 
G01 X-56.2028 Y76.2735 
G01 X-55.9404 Y76.5359 
G01 X-54.7261 Y77.7502 
G01 X-48.1439 Y77.7502 
G01 X-47.9241 Y77.5304 
G01 X-47.1611 Y76.7673 
G01 X-47.0975 Y76.7306 
G01 X-47.0267 Y76.7117 
G01 X-46.9533 Y76.7117 
G01 X-46.8825 Y76.7306 
G01 X-46.8189 Y76.7673 
G01 X-46.7671 Y76.8192 
G01 X-45.8361 Y77.7502 
G01 X-41.7939 Y77.7502 
G01 X-41.5741 Y77.5304 
G01 X-39.8441 Y75.8003 
G01 X-39.7922 Y75.7485 
G01 X-39.7287 Y75.7118 
G01 X-39.6578 Y75.6928 
G01 X-39.0540 Y75.6928 
G01 X-38.6072 Y75.2460 
G01 X-38.6072 Y74.6140 
G01 X-39.0540 Y74.1672 
G01 X-39.6860 Y74.1672 
G01 X-40.1328 Y74.6140 
G01 X-40.1328 Y75.2178 
G01 X-40.1518 Y75.2887 
G01 X-40.1885 Y75.3522 
G01 X-41.9185 Y77.0823 
G01 X-41.9704 Y77.1341 
G01 X-42.0339 Y77.1708 
G01 X-42.1048 Y77.1898 
G01 X-45.5252 Y77.1898 
G01 X-45.5961 Y77.1708 
G01 X-45.6596 Y77.1341 
G01 X-46.2297 Y76.5640 
G01 X-46.2472 Y76.5465 
G01 X-46.2815 Y76.5122 
G01 X-46.2954 Y76.4882 
G01 X-46.3182 Y76.4487 
G01 X-46.3255 Y76.4215 
G01 X-46.3372 Y76.3778 
G01 X-46.3372 Y76.3407 
G01 X-46.3372 Y76.3044 
G01 X-46.3289 Y76.2736 
G01 X-46.3182 Y76.2336 
G01 X-46.3092 Y76.2180 
G01 X-46.2815 Y76.1701 
G01 X-46.2787 Y76.1672 
G01 X-46.1510 Y75.8589 
G01 X-46.1510 Y74.0011 
G01 X-46.2787 Y73.6927 
G01 X-46.5147 Y73.4567 
G01 X-46.8231 Y73.3290 
G01 X-47.1569 Y73.3290 
G01 X-47.4652 Y73.4567 
G01 X-47.7013 Y73.6927 
G01 X-47.8290 Y74.0011 
G01 X-47.8290 Y75.8589 
